{\rtf1\ansi\ansicpg1252\cocoartf1404\cocoasubrtf340
{\fonttbl\f0\fnil\fcharset0 Menlo-Bold;}
{\colortbl;\red255\green255\blue255;}
\margl1440\margr1440\vieww10800\viewh8400\viewkind0
\deftab529
\pard\tx529\pardeftab529\pardirnatural\partightenfactor0

\f0\b\fs22 \cf0 \CocoaLigature0 MODULE MainModule\
    CONST robtarget p10:=[[578.16,-230.29,728.97],[0.0184849,-0.00674941,0.999803,0.00269819],[-1,0,-1,0],[9E+09,9E+09,9E+09,9E+09,9E+09,9E+09]];\
    \
    \
    PROC main()\
\
SetDO DO10_1,1;\
\
MoveJ p10,v10,fine,tool0;\
\
\
MoveL Offs(p10,164,44,0),v30,fine,tool0;\
SetDO DO10_1, 0;\
MoveL Offs(p10,191,44,0),v10,fine,tool0;\
SetDO DO10_1, 1;\
MoveL Offs(p10,163,45,0),v30,fine,tool0;\
SetDO DO10_1, 0;\
MoveL Offs(p10,193,45,0),v10,fine,tool0;\
SetDO DO10_1, 1;\
MoveL Offs(p10,162,46,0),v30,fine,tool0;\
SetDO DO10_1, 0;\
MoveL Offs(p10,194,46,0),v10,fine,tool0;\
SetDO DO10_1, 1;\
MoveL Offs(p10,161,47,0),v30,fine,tool0;\
SetDO DO10_1, 0;\
MoveL Offs(p10,195,47,0),v10,fine,tool0;\
SetDO DO10_1, 1;\
MoveL Offs(p10,160,48,0),v30,fine,tool0;\
SetDO DO10_1, 0;\
MoveL Offs(p10,196,48,0),v10,fine,tool0;\
SetDO DO10_1, 1;\
MoveL Offs(p10,159,49,0),v30,fine,tool0;\
SetDO DO10_1, 0;\
MoveL Offs(p10,197,49,0),v10,fine,tool0;\
SetDO DO10_1, 1;\
MoveL Offs(p10,159,50,0),v30,fine,tool0;\
SetDO DO10_1, 0;\
MoveL Offs(p10,197,50,0),v10,fine,tool0;\
SetDO DO10_1, 1;\
MoveL Offs(p10,158,51,0),v30,fine,tool0;\
SetDO DO10_1, 0;\
MoveL Offs(p10,165,51,0),v10,fine,tool0;\
SetDO DO10_1, 1;\
MoveL Offs(p10,191,51,0),v30,fine,tool0;\
SetDO DO10_1, 0;\
MoveL Offs(p10,198,51,0),v10,fine,tool0;\
SetDO DO10_1, 1;\
MoveL Offs(p10,158,52,0),v30,fine,tool0;\
SetDO DO10_1, 0;\
MoveL Offs(p10,164,52,0),v10,fine,tool0;\
SetDO DO10_1, 1;\
MoveL Offs(p10,192,52,0),v30,fine,tool0;\
SetDO DO10_1, 0;\
MoveL Offs(p10,198,52,0),v10,fine,tool0;\
SetDO DO10_1, 1;\
MoveL Offs(p10,158,53,0),v30,fine,tool0;\
SetDO DO10_1, 0;\
MoveL Offs(p10,163,53,0),v10,fine,tool0;\
SetDO DO10_1, 1;\
MoveL Offs(p10,192,53,0),v30,fine,tool0;\
SetDO DO10_1, 0;\
MoveL Offs(p10,198,53,0),v10,fine,tool0;\
SetDO DO10_1, 1;\
MoveL Offs(p10,158,54,0),v30,fine,tool0;\
SetDO DO10_1, 0;\
MoveL Offs(p10,163,54,0),v10,fine,tool0;\
SetDO DO10_1, 1;\
MoveL Offs(p10,193,54,0),v30,fine,tool0;\
SetDO DO10_1, 0;\
MoveL Offs(p10,198,54,0),v10,fine,tool0;\
SetDO DO10_1, 1;\
MoveL Offs(p10,158,55,0),v30,fine,tool0;\
SetDO DO10_1, 0;\
MoveL Offs(p10,163,55,0),v10,fine,tool0;\
SetDO DO10_1, 1;\
MoveL Offs(p10,193,55,0),v30,fine,tool0;\
SetDO DO10_1, 0;\
MoveL Offs(p10,198,55,0),v10,fine,tool0;\
SetDO DO10_1, 1;\
MoveL Offs(p10,158,56,0),v30,fine,tool0;\
SetDO DO10_1, 0;\
MoveL Offs(p10,163,56,0),v10,fine,tool0;\
SetDO DO10_1, 1;\
MoveL Offs(p10,193,56,0),v30,fine,tool0;\
SetDO DO10_1, 0;\
MoveL Offs(p10,198,56,0),v10,fine,tool0;\
SetDO DO10_1, 1;\
MoveL Offs(p10,342,56,0),v30,fine,tool0;\
SetDO DO10_1, 0;\
MoveL Offs(p10,377,56,0),v10,fine,tool0;\
SetDO DO10_1, 1;\
MoveL Offs(p10,158,57,0),v30,fine,tool0;\
SetDO DO10_1, 0;\
MoveL Offs(p10,163,57,0),v10,fine,tool0;\
SetDO DO10_1, 1;\
MoveL Offs(p10,193,57,0),v30,fine,tool0;\
SetDO DO10_1, 0;\
MoveL Offs(p10,198,57,0),v10,fine,tool0;\
SetDO DO10_1, 1;\
MoveL Offs(p10,342,57,0),v30,fine,tool0;\
SetDO DO10_1, 0;\
MoveL Offs(p10,377,57,0),v10,fine,tool0;\
SetDO DO10_1, 1;\
MoveL Offs(p10,158,58,0),v30,fine,tool0;\
SetDO DO10_1, 0;\
MoveL Offs(p10,164,58,0),v10,fine,tool0;\
SetDO DO10_1, 1;\
MoveL Offs(p10,192,58,0),v30,fine,tool0;\
SetDO DO10_1, 0;\
MoveL Offs(p10,198,58,0),v10,fine,tool0;\
SetDO DO10_1, 1;\
MoveL Offs(p10,342,58,0),v30,fine,tool0;\
SetDO DO10_1, 0;\
MoveL Offs(p10,377,58,0),v10,fine,tool0;\
SetDO DO10_1, 1;\
MoveL Offs(p10,158,59,0),v30,fine,tool0;\
SetDO DO10_1, 0;\
MoveL Offs(p10,165,59,0),v10,fine,tool0;\
SetDO DO10_1, 1;\
MoveL Offs(p10,191,59,0),v30,fine,tool0;\
SetDO DO10_1, 0;\
MoveL Offs(p10,198,59,0),v10,fine,tool0;\
SetDO DO10_1, 1;\
MoveL Offs(p10,342,59,0),v30,fine,tool0;\
SetDO DO10_1, 0;\
MoveL Offs(p10,377,59,0),v10,fine,tool0;\
SetDO DO10_1, 1;\
MoveL Offs(p10,159,60,0),v30,fine,tool0;\
SetDO DO10_1, 0;\
MoveL Offs(p10,197,60,0),v10,fine,tool0;\
SetDO DO10_1, 1;\
MoveL Offs(p10,342,60,0),v30,fine,tool0;\
SetDO DO10_1, 0;\
MoveL Offs(p10,377,60,0),v10,fine,tool0;\
SetDO DO10_1, 1;\
MoveL Offs(p10,159,61,0),v30,fine,tool0;\
SetDO DO10_1, 0;\
MoveL Offs(p10,197,61,0),v10,fine,tool0;\
SetDO DO10_1, 1;\
MoveL Offs(p10,342,61,0),v30,fine,tool0;\
SetDO DO10_1, 0;\
MoveL Offs(p10,377,61,0),v10,fine,tool0;\
SetDO DO10_1, 1;\
MoveL Offs(p10,160,62,0),v30,fine,tool0;\
SetDO DO10_1, 0;\
MoveL Offs(p10,196,62,0),v10,fine,tool0;\
SetDO DO10_1, 1;\
MoveL Offs(p10,342,62,0),v30,fine,tool0;\
SetDO DO10_1, 0;\
MoveL Offs(p10,377,62,0),v10,fine,tool0;\
SetDO DO10_1, 1;\
MoveL Offs(p10,161,63,0),v30,fine,tool0;\
SetDO DO10_1, 0;\
MoveL Offs(p10,195,63,0),v10,fine,tool0;\
SetDO DO10_1, 1;\
MoveL Offs(p10,342,63,0),v30,fine,tool0;\
SetDO DO10_1, 0;\
MoveL Offs(p10,377,63,0),v10,fine,tool0;\
SetDO DO10_1, 1;\
MoveL Offs(p10,161,64,0),v30,fine,tool0;\
SetDO DO10_1, 0;\
MoveL Offs(p10,194,64,0),v10,fine,tool0;\
SetDO DO10_1, 1;\
MoveL Offs(p10,342,64,0),v30,fine,tool0;\
SetDO DO10_1, 0;\
MoveL Offs(p10,377,64,0),v10,fine,tool0;\
SetDO DO10_1, 1;\
MoveL Offs(p10,163,65,0),v30,fine,tool0;\
SetDO DO10_1, 0;\
MoveL Offs(p10,193,65,0),v10,fine,tool0;\
SetDO DO10_1, 1;\
MoveL Offs(p10,306,65,0),v30,fine,tool0;\
SetDO DO10_1, 0;\
MoveL Offs(p10,306,65,0),v10,fine,tool0;\
SetDO DO10_1, 1;\
MoveL Offs(p10,341,65,0),v30,fine,tool0;\
SetDO DO10_1, 0;\
MoveL Offs(p10,377,65,0),v10,fine,tool0;\
SetDO DO10_1, 1;\
MoveL Offs(p10,412,65,0),v30,fine,tool0;\
SetDO DO10_1, 0;\
MoveL Offs(p10,412,65,0),v10,fine,tool0;\
SetDO DO10_1, 1;\
MoveL Offs(p10,165,66,0),v30,fine,tool0;\
SetDO DO10_1, 0;\
MoveL Offs(p10,191,66,0),v10,fine,tool0;\
SetDO DO10_1, 1;\
MoveL Offs(p10,305,66,0),v30,fine,tool0;\
SetDO DO10_1, 0;\
MoveL Offs(p10,306,66,0),v10,fine,tool0;\
SetDO DO10_1, 1;\
MoveL Offs(p10,337,66,0),v30,fine,tool0;\
SetDO DO10_1, 0;\
MoveL Offs(p10,341,66,0),v10,fine,tool0;\
SetDO DO10_1, 1;\
MoveL Offs(p10,376,66,0),v30,fine,tool0;\
SetDO DO10_1, 0;\
MoveL Offs(p10,377,66,0),v10,fine,tool0;\
SetDO DO10_1, 1;\
MoveL Offs(p10,408,66,0),v30,fine,tool0;\
SetDO DO10_1, 0;\
MoveL Offs(p10,413,66,0),v10,fine,tool0;\
SetDO DO10_1, 1;\
MoveL Offs(p10,303,67,0),v30,fine,tool0;\
SetDO DO10_1, 0;\
MoveL Offs(p10,307,67,0),v10,fine,tool0;\
SetDO DO10_1, 1;\
MoveL Offs(p10,334,67,0),v30,fine,tool0;\
SetDO DO10_1, 0;\
MoveL Offs(p10,342,67,0),v10,fine,tool0;\
SetDO DO10_1, 1;\
MoveL Offs(p10,374,67,0),v30,fine,tool0;\
SetDO DO10_1, 0;\
MoveL Offs(p10,378,67,0),v10,fine,tool0;\
SetDO DO10_1, 1;\
MoveL Offs(p10,404,67,0),v30,fine,tool0;\
SetDO DO10_1, 0;\
MoveL Offs(p10,413,67,0),v10,fine,tool0;\
SetDO DO10_1, 1;\
MoveL Offs(p10,301,68,0),v30,fine,tool0;\
SetDO DO10_1, 0;\
MoveL Offs(p10,308,68,0),v10,fine,tool0;\
SetDO DO10_1, 1;\
MoveL Offs(p10,330,68,0),v30,fine,tool0;\
SetDO DO10_1, 0;\
MoveL Offs(p10,342,68,0),v10,fine,tool0;\
SetDO DO10_1, 1;\
MoveL Offs(p10,372,68,0),v30,fine,tool0;\
SetDO DO10_1, 0;\
MoveL Offs(p10,378,68,0),v10,fine,tool0;\
SetDO DO10_1, 1;\
MoveL Offs(p10,401,68,0),v30,fine,tool0;\
SetDO DO10_1, 0;\
MoveL Offs(p10,413,68,0),v10,fine,tool0;\
SetDO DO10_1, 1;\
MoveL Offs(p10,299,69,0),v30,fine,tool0;\
SetDO DO10_1, 0;\
MoveL Offs(p10,308,69,0),v10,fine,tool0;\
SetDO DO10_1, 1;\
MoveL Offs(p10,326,69,0),v30,fine,tool0;\
SetDO DO10_1, 0;\
MoveL Offs(p10,342,69,0),v10,fine,tool0;\
SetDO DO10_1, 1;\
MoveL Offs(p10,370,69,0),v30,fine,tool0;\
SetDO DO10_1, 0;\
MoveL Offs(p10,379,69,0),v10,fine,tool0;\
SetDO DO10_1, 1;\
MoveL Offs(p10,397,69,0),v30,fine,tool0;\
SetDO DO10_1, 0;\
MoveL Offs(p10,413,69,0),v10,fine,tool0;\
SetDO DO10_1, 1;\
MoveL Offs(p10,298,70,0),v30,fine,tool0;\
SetDO DO10_1, 0;\
MoveL Offs(p10,309,70,0),v10,fine,tool0;\
SetDO DO10_1, 1;\
MoveL Offs(p10,322,70,0),v30,fine,tool0;\
SetDO DO10_1, 0;\
MoveL Offs(p10,343,70,0),v10,fine,tool0;\
SetDO DO10_1, 1;\
MoveL Offs(p10,369,70,0),v30,fine,tool0;\
SetDO DO10_1, 0;\
MoveL Offs(p10,380,70,0),v10,fine,tool0;\
SetDO DO10_1, 1;\
MoveL Offs(p10,393,70,0),v30,fine,tool0;\
SetDO DO10_1, 0;\
MoveL Offs(p10,414,70,0),v10,fine,tool0;\
SetDO DO10_1, 1;\
MoveL Offs(p10,296,71,0),v30,fine,tool0;\
SetDO DO10_1, 0;\
MoveL Offs(p10,309,71,0),v10,fine,tool0;\
SetDO DO10_1, 1;\
MoveL Offs(p10,318,71,0),v30,fine,tool0;\
SetDO DO10_1, 0;\
MoveL Offs(p10,343,71,0),v10,fine,tool0;\
SetDO DO10_1, 1;\
MoveL Offs(p10,367,71,0),v30,fine,tool0;\
SetDO DO10_1, 0;\
MoveL Offs(p10,380,71,0),v10,fine,tool0;\
SetDO DO10_1, 1;\
MoveL Offs(p10,389,71,0),v30,fine,tool0;\
SetDO DO10_1, 0;\
MoveL Offs(p10,414,71,0),v10,fine,tool0;\
SetDO DO10_1, 1;\
MoveL Offs(p10,294,72,0),v30,fine,tool0;\
SetDO DO10_1, 0;\
MoveL Offs(p10,310,72,0),v10,fine,tool0;\
SetDO DO10_1, 1;\
MoveL Offs(p10,315,72,0),v30,fine,tool0;\
SetDO DO10_1, 0;\
MoveL Offs(p10,343,72,0),v10,fine,tool0;\
SetDO DO10_1, 1;\
MoveL Offs(p10,365,72,0),v30,fine,tool0;\
SetDO DO10_1, 0;\
MoveL Offs(p10,381,72,0),v10,fine,tool0;\
SetDO DO10_1, 1;\
MoveL Offs(p10,386,72,0),v30,fine,tool0;\
SetDO DO10_1, 0;\
MoveL Offs(p10,414,72,0),v10,fine,tool0;\
SetDO DO10_1, 1;\
MoveL Offs(p10,293,73,0),v30,fine,tool0;\
SetDO DO10_1, 0;\
MoveL Offs(p10,343,73,0),v10,fine,tool0;\
SetDO DO10_1, 1;\
MoveL Offs(p10,363,73,0),v30,fine,tool0;\
SetDO DO10_1, 0;\
MoveL Offs(p10,414,73,0),v10,fine,tool0;\
SetDO DO10_1, 1;\
MoveL Offs(p10,291,74,0),v30,fine,tool0;\
SetDO DO10_1, 0;\
MoveL Offs(p10,344,74,0),v10,fine,tool0;\
SetDO DO10_1, 1;\
MoveL Offs(p10,362,74,0),v30,fine,tool0;\
SetDO DO10_1, 0;\
MoveL Offs(p10,380,74,0),v10,fine,tool0;\
SetDO DO10_1, 1;\
MoveL Offs(p10,383,74,0),v30,fine,tool0;\
SetDO DO10_1, 0;\
MoveL Offs(p10,415,74,0),v10,fine,tool0;\
SetDO DO10_1, 1;\
MoveL Offs(p10,158,75,0),v30,fine,tool0;\
SetDO DO10_1, 0;\
MoveL Offs(p10,163,75,0),v10,fine,tool0;\
SetDO DO10_1, 1;\
MoveL Offs(p10,183,75,0),v30,fine,tool0;\
SetDO DO10_1, 0;\
MoveL Offs(p10,191,75,0),v10,fine,tool0;\
SetDO DO10_1, 1;\
MoveL Offs(p10,289,75,0),v30,fine,tool0;\
SetDO DO10_1, 0;\
MoveL Offs(p10,308,75,0),v10,fine,tool0;\
SetDO DO10_1, 1;\
MoveL Offs(p10,312,75,0),v30,fine,tool0;\
SetDO DO10_1, 0;\
MoveL Offs(p10,344,75,0),v10,fine,tool0;\
SetDO DO10_1, 1;\
MoveL Offs(p10,360,75,0),v30,fine,tool0;\
SetDO DO10_1, 0;\
MoveL Offs(p10,379,75,0),v10,fine,tool0;\
SetDO DO10_1, 1;\
MoveL Offs(p10,383,75,0),v30,fine,tool0;\
SetDO DO10_1, 0;\
MoveL Offs(p10,415,75,0),v10,fine,tool0;\
SetDO DO10_1, 1;\
MoveL Offs(p10,158,76,0),v30,fine,tool0;\
SetDO DO10_1, 0;\
MoveL Offs(p10,163,76,0),v10,fine,tool0;\
SetDO DO10_1, 1;\
MoveL Offs(p10,181,76,0),v30,fine,tool0;\
SetDO DO10_1, 0;\
MoveL Offs(p10,193,76,0),v10,fine,tool0;\
SetDO DO10_1, 1;\
MoveL Offs(p10,287,76,0),v30,fine,tool0;\
SetDO DO10_1, 0;\
MoveL Offs(p10,306,76,0),v10,fine,tool0;\
SetDO DO10_1, 1;\
MoveL Offs(p10,312,76,0),v30,fine,tool0;\
SetDO DO10_1, 0;\
MoveL Offs(p10,344,76,0),v10,fine,tool0;\
SetDO DO10_1, 1;\
MoveL Offs(p10,358,76,0),v30,fine,tool0;\
SetDO DO10_1, 0;\
MoveL Offs(p10,377,76,0),v10,fine,tool0;\
SetDO DO10_1, 1;\
MoveL Offs(p10,383,76,0),v30,fine,tool0;\
SetDO DO10_1, 0;\
MoveL Offs(p10,415,76,0),v10,fine,tool0;\
SetDO DO10_1, 1;\
MoveL Offs(p10,158,77,0),v30,fine,tool0;\
SetDO DO10_1, 0;\
MoveL Offs(p10,163,77,0),v10,fine,tool0;\
SetDO DO10_1, 1;\
MoveL Offs(p10,180,77,0),v30,fine,tool0;\
SetDO DO10_1, 0;\
MoveL Offs(p10,194,77,0),v10,fine,tool0;\
SetDO DO10_1, 1;\
MoveL Offs(p10,252,77,0),v30,fine,tool0;\
SetDO DO10_1, 0;\
MoveL Offs(p10,259,77,0),v10,fine,tool0;\
SetDO DO10_1, 1;\
MoveL Offs(p10,286,77,0),v30,fine,tool0;\
SetDO DO10_1, 0;\
MoveL Offs(p10,304,77,0),v10,fine,tool0;\
SetDO DO10_1, 1;\
MoveL Offs(p10,313,77,0),v30,fine,tool0;\
SetDO DO10_1, 0;\
MoveL Offs(p10,344,77,0),v10,fine,tool0;\
SetDO DO10_1, 1;\
MoveL Offs(p10,357,77,0),v30,fine,tool0;\
SetDO DO10_1, 0;\
MoveL Offs(p10,375,77,0),v10,fine,tool0;\
SetDO DO10_1, 1;\
MoveL Offs(p10,384,77,0),v30,fine,tool0;\
SetDO DO10_1, 0;\
MoveL Offs(p10,415,77,0),v10,fine,tool0;\
SetDO DO10_1, 1;\
MoveL Offs(p10,158,78,0),v30,fine,tool0;\
SetDO DO10_1, 0;\
MoveL Offs(p10,163,78,0),v10,fine,tool0;\
SetDO DO10_1, 1;\
MoveL Offs(p10,179,78,0),v30,fine,tool0;\
SetDO DO10_1, 0;\
MoveL Offs(p10,195,78,0),v10,fine,tool0;\
SetDO DO10_1, 1;\
MoveL Offs(p10,252,78,0),v30,fine,tool0;\
SetDO DO10_1, 0;\
MoveL Offs(p10,259,78,0),v10,fine,tool0;\
SetDO DO10_1, 1;\
MoveL Offs(p10,284,78,0),v30,fine,tool0;\
SetDO DO10_1, 0;\
MoveL Offs(p10,303,78,0),v10,fine,tool0;\
SetDO DO10_1, 1;\
MoveL Offs(p10,313,78,0),v30,fine,tool0;\
SetDO DO10_1, 0;\
MoveL Offs(p10,345,78,0),v10,fine,tool0;\
SetDO DO10_1, 1;\
MoveL Offs(p10,355,78,0),v30,fine,tool0;\
SetDO DO10_1, 0;\
MoveL Offs(p10,373,78,0),v10,fine,tool0;\
SetDO DO10_1, 1;\
MoveL Offs(p10,384,78,0),v30,fine,tool0;\
SetDO DO10_1, 0;\
MoveL Offs(p10,416,78,0),v10,fine,tool0;\
SetDO DO10_1, 1;\
MoveL Offs(p10,158,79,0),v30,fine,tool0;\
SetDO DO10_1, 0;\
MoveL Offs(p10,163,79,0),v10,fine,tool0;\
SetDO DO10_1, 1;\
MoveL Offs(p10,177,79,0),v30,fine,tool0;\
SetDO DO10_1, 0;\
MoveL Offs(p10,196,79,0),v10,fine,tool0;\
SetDO DO10_1, 1;\
MoveL Offs(p10,256,79,0),v30,fine,tool0;\
SetDO DO10_1, 0;\
MoveL Offs(p10,258,79,0),v10,fine,tool0;\
SetDO DO10_1, 1;\
MoveL Offs(p10,282,79,0),v30,fine,tool0;\
SetDO DO10_1, 0;\
MoveL Offs(p10,301,79,0),v10,fine,tool0;\
SetDO DO10_1, 1;\
MoveL Offs(p10,313,79,0),v30,fine,tool0;\
SetDO DO10_1, 0;\
MoveL Offs(p10,345,79,0),v10,fine,tool0;\
SetDO DO10_1, 1;\
MoveL Offs(p10,353,79,0),v30,fine,tool0;\
SetDO DO10_1, 0;\
MoveL Offs(p10,372,79,0),v10,fine,tool0;\
SetDO DO10_1, 1;\
MoveL Offs(p10,384,79,0),v30,fine,tool0;\
SetDO DO10_1, 0;\
MoveL Offs(p10,416,79,0),v10,fine,tool0;\
SetDO DO10_1, 1;\
MoveL Offs(p10,158,80,0),v30,fine,tool0;\
SetDO DO10_1, 0;\
MoveL Offs(p10,163,80,0),v10,fine,tool0;\
SetDO DO10_1, 1;\
MoveL Offs(p10,176,80,0),v30,fine,tool0;\
SetDO DO10_1, 0;\
MoveL Offs(p10,197,80,0),v10,fine,tool0;\
SetDO DO10_1, 1;\
MoveL Offs(p10,253,80,0),v30,fine,tool0;\
SetDO DO10_1, 0;\
MoveL Offs(p10,255,80,0),v10,fine,tool0;\
SetDO DO10_1, 1;\
MoveL Offs(p10,280,80,0),v30,fine,tool0;\
SetDO DO10_1, 0;\
MoveL Offs(p10,299,80,0),v10,fine,tool0;\
SetDO DO10_1, 1;\
MoveL Offs(p10,313,80,0),v30,fine,tool0;\
SetDO DO10_1, 0;\
MoveL Offs(p10,345,80,0),v10,fine,tool0;\
SetDO DO10_1, 1;\
MoveL Offs(p10,351,80,0),v30,fine,tool0;\
SetDO DO10_1, 0;\
MoveL Offs(p10,370,80,0),v10,fine,tool0;\
SetDO DO10_1, 1;\
MoveL Offs(p10,384,80,0),v30,fine,tool0;\
SetDO DO10_1, 0;\
MoveL Offs(p10,416,80,0),v10,fine,tool0;\
SetDO DO10_1, 1;\
MoveL Offs(p10,158,81,0),v30,fine,tool0;\
SetDO DO10_1, 0;\
MoveL Offs(p10,163,81,0),v10,fine,tool0;\
SetDO DO10_1, 1;\
MoveL Offs(p10,175,81,0),v30,fine,tool0;\
SetDO DO10_1, 0;\
MoveL Offs(p10,197,81,0),v10,fine,tool0;\
SetDO DO10_1, 1;\
MoveL Offs(p10,253,81,0),v30,fine,tool0;\
SetDO DO10_1, 0;\
MoveL Offs(p10,254,81,0),v10,fine,tool0;\
SetDO DO10_1, 1;\
MoveL Offs(p10,279,81,0),v30,fine,tool0;\
SetDO DO10_1, 0;\
MoveL Offs(p10,297,81,0),v10,fine,tool0;\
SetDO DO10_1, 1;\
MoveL Offs(p10,314,81,0),v30,fine,tool0;\
SetDO DO10_1, 0;\
MoveL Offs(p10,346,81,0),v10,fine,tool0;\
SetDO DO10_1, 1;\
MoveL Offs(p10,350,81,0),v30,fine,tool0;\
SetDO DO10_1, 0;\
MoveL Offs(p10,368,81,0),v10,fine,tool0;\
SetDO DO10_1, 1;\
MoveL Offs(p10,385,81,0),v30,fine,tool0;\
SetDO DO10_1, 0;\
MoveL Offs(p10,416,81,0),v10,fine,tool0;\
SetDO DO10_1, 1;\
MoveL Offs(p10,158,82,0),v30,fine,tool0;\
SetDO DO10_1, 0;\
MoveL Offs(p10,163,82,0),v10,fine,tool0;\
SetDO DO10_1, 1;\
MoveL Offs(p10,174,82,0),v30,fine,tool0;\
SetDO DO10_1, 0;\
MoveL Offs(p10,183,82,0),v10,fine,tool0;\
SetDO DO10_1, 1;\
MoveL Offs(p10,190,82,0),v30,fine,tool0;\
SetDO DO10_1, 0;\
MoveL Offs(p10,197,82,0),v10,fine,tool0;\
SetDO DO10_1, 1;\
MoveL Offs(p10,254,82,0),v30,fine,tool0;\
SetDO DO10_1, 0;\
MoveL Offs(p10,256,82,0),v10,fine,tool0;\
SetDO DO10_1, 1;\
MoveL Offs(p10,277,82,0),v30,fine,tool0;\
SetDO DO10_1, 0;\
MoveL Offs(p10,296,82,0),v10,fine,tool0;\
SetDO DO10_1, 1;\
MoveL Offs(p10,314,82,0),v30,fine,tool0;\
SetDO DO10_1, 0;\
MoveL Offs(p10,367,82,0),v10,fine,tool0;\
SetDO DO10_1, 1;\
MoveL Offs(p10,385,82,0),v30,fine,tool0;\
SetDO DO10_1, 0;\
MoveL Offs(p10,417,82,0),v10,fine,tool0;\
SetDO DO10_1, 1;\
MoveL Offs(p10,158,83,0),v30,fine,tool0;\
SetDO DO10_1, 0;\
MoveL Offs(p10,163,83,0),v10,fine,tool0;\
SetDO DO10_1, 1;\
MoveL Offs(p10,172,83,0),v30,fine,tool0;\
SetDO DO10_1, 0;\
MoveL Offs(p10,182,83,0),v10,fine,tool0;\
SetDO DO10_1, 1;\
MoveL Offs(p10,192,83,0),v30,fine,tool0;\
SetDO DO10_1, 0;\
MoveL Offs(p10,198,83,0),v10,fine,tool0;\
SetDO DO10_1, 1;\
MoveL Offs(p10,256,83,0),v30,fine,tool0;\
SetDO DO10_1, 0;\
MoveL Offs(p10,259,83,0),v10,fine,tool0;\
SetDO DO10_1, 1;\
MoveL Offs(p10,276,83,0),v30,fine,tool0;\
SetDO DO10_1, 0;\
MoveL Offs(p10,294,83,0),v10,fine,tool0;\
SetDO DO10_1, 1;\
MoveL Offs(p10,314,83,0),v30,fine,tool0;\
SetDO DO10_1, 0;\
MoveL Offs(p10,365,83,0),v10,fine,tool0;\
SetDO DO10_1, 1;\
MoveL Offs(p10,385,83,0),v30,fine,tool0;\
SetDO DO10_1, 0;\
MoveL Offs(p10,443,83,0),v10,fine,tool0;\
SetDO DO10_1, 1;\
MoveL Offs(p10,158,84,0),v30,fine,tool0;\
SetDO DO10_1, 0;\
MoveL Offs(p10,163,84,0),v10,fine,tool0;\
SetDO DO10_1, 1;\
MoveL Offs(p10,171,84,0),v30,fine,tool0;\
SetDO DO10_1, 0;\
MoveL Offs(p10,181,84,0),v10,fine,tool0;\
SetDO DO10_1, 1;\
MoveL Offs(p10,192,84,0),v30,fine,tool0;\
SetDO DO10_1, 0;\
MoveL Offs(p10,198,84,0),v10,fine,tool0;\
SetDO DO10_1, 1;\
MoveL Offs(p10,252,84,0),v30,fine,tool0;\
SetDO DO10_1, 0;\
MoveL Offs(p10,259,84,0),v10,fine,tool0;\
SetDO DO10_1, 1;\
MoveL Offs(p10,277,84,0),v30,fine,tool0;\
SetDO DO10_1, 0;\
MoveL Offs(p10,292,84,0),v10,fine,tool0;\
SetDO DO10_1, 1;\
MoveL Offs(p10,315,84,0),v30,fine,tool0;\
SetDO DO10_1, 0;\
MoveL Offs(p10,342,84,0),v10,fine,tool0;\
SetDO DO10_1, 1;\
MoveL Offs(p10,348,84,0),v30,fine,tool0;\
SetDO DO10_1, 0;\
MoveL Offs(p10,363,84,0),v10,fine,tool0;\
SetDO DO10_1, 1;\
MoveL Offs(p10,385,84,0),v30,fine,tool0;\
SetDO DO10_1, 0;\
MoveL Offs(p10,413,84,0),v10,fine,tool0;\
SetDO DO10_1, 1;\
MoveL Offs(p10,418,84,0),v30,fine,tool0;\
SetDO DO10_1, 0;\
MoveL Offs(p10,443,84,0),v10,fine,tool0;\
SetDO DO10_1, 1;\
MoveL Offs(p10,158,85,0),v30,fine,tool0;\
SetDO DO10_1, 0;\
MoveL Offs(p10,163,85,0),v10,fine,tool0;\
SetDO DO10_1, 1;\
MoveL Offs(p10,170,85,0),v30,fine,tool0;\
SetDO DO10_1, 0;\
MoveL Offs(p10,179,85,0),v10,fine,tool0;\
SetDO DO10_1, 1;\
MoveL Offs(p10,193,85,0),v30,fine,tool0;\
SetDO DO10_1, 0;\
MoveL Offs(p10,198,85,0),v10,fine,tool0;\
SetDO DO10_1, 1;\
MoveL Offs(p10,277,85,0),v30,fine,tool0;\
SetDO DO10_1, 0;\
MoveL Offs(p10,290,85,0),v10,fine,tool0;\
SetDO DO10_1, 1;\
MoveL Offs(p10,315,85,0),v30,fine,tool0;\
SetDO DO10_1, 0;\
MoveL Offs(p10,339,85,0),v10,fine,tool0;\
SetDO DO10_1, 1;\
MoveL Offs(p10,348,85,0),v30,fine,tool0;\
SetDO DO10_1, 0;\
MoveL Offs(p10,361,85,0),v10,fine,tool0;\
SetDO DO10_1, 1;\
MoveL Offs(p10,386,85,0),v30,fine,tool0;\
SetDO DO10_1, 0;\
MoveL Offs(p10,409,85,0),v10,fine,tool0;\
SetDO DO10_1, 1;\
MoveL Offs(p10,418,85,0),v30,fine,tool0;\
SetDO DO10_1, 0;\
MoveL Offs(p10,443,85,0),v10,fine,tool0;\
SetDO DO10_1, 1;\
MoveL Offs(p10,158,86,0),v30,fine,tool0;\
SetDO DO10_1, 0;\
MoveL Offs(p10,163,86,0),v10,fine,tool0;\
SetDO DO10_1, 1;\
MoveL Offs(p10,168,86,0),v30,fine,tool0;\
SetDO DO10_1, 0;\
MoveL Offs(p10,178,86,0),v10,fine,tool0;\
SetDO DO10_1, 1;\
MoveL Offs(p10,193,86,0),v30,fine,tool0;\
SetDO DO10_1, 0;\
MoveL Offs(p10,198,86,0),v10,fine,tool0;\
SetDO DO10_1, 1;\
MoveL Offs(p10,259,86,0),v30,fine,tool0;\
SetDO DO10_1, 0;\
MoveL Offs(p10,259,86,0),v10,fine,tool0;\
SetDO DO10_1, 1;\
MoveL Offs(p10,278,86,0),v30,fine,tool0;\
SetDO DO10_1, 0;\
MoveL Offs(p10,289,86,0),v10,fine,tool0;\
SetDO DO10_1, 1;\
MoveL Offs(p10,315,86,0),v30,fine,tool0;\
SetDO DO10_1, 0;\
MoveL Offs(p10,335,86,0),v10,fine,tool0;\
SetDO DO10_1, 1;\
MoveL Offs(p10,349,86,0),v30,fine,tool0;\
SetDO DO10_1, 0;\
MoveL Offs(p10,360,86,0),v10,fine,tool0;\
SetDO DO10_1, 1;\
MoveL Offs(p10,386,86,0),v30,fine,tool0;\
SetDO DO10_1, 0;\
MoveL Offs(p10,406,86,0),v10,fine,tool0;\
SetDO DO10_1, 1;\
MoveL Offs(p10,418,86,0),v30,fine,tool0;\
SetDO DO10_1, 0;\
MoveL Offs(p10,443,86,0),v10,fine,tool0;\
SetDO DO10_1, 1;\
MoveL Offs(p10,158,87,0),v30,fine,tool0;\
SetDO DO10_1, 0;\
MoveL Offs(p10,163,87,0),v10,fine,tool0;\
SetDO DO10_1, 1;\
MoveL Offs(p10,167,87,0),v30,fine,tool0;\
SetDO DO10_1, 0;\
MoveL Offs(p10,177,87,0),v10,fine,tool0;\
SetDO DO10_1, 1;\
MoveL Offs(p10,193,87,0),v30,fine,tool0;\
SetDO DO10_1, 0;\
MoveL Offs(p10,198,87,0),v10,fine,tool0;\
SetDO DO10_1, 1;\
MoveL Offs(p10,259,87,0),v30,fine,tool0;\
SetDO DO10_1, 0;\
MoveL Offs(p10,259,87,0),v10,fine,tool0;\
SetDO DO10_1, 1;\
MoveL Offs(p10,279,87,0),v30,fine,tool0;\
SetDO DO10_1, 0;\
MoveL Offs(p10,287,87,0),v10,fine,tool0;\
SetDO DO10_1, 1;\
MoveL Offs(p10,315,87,0),v30,fine,tool0;\
SetDO DO10_1, 0;\
MoveL Offs(p10,331,87,0),v10,fine,tool0;\
SetDO DO10_1, 1;\
MoveL Offs(p10,350,87,0),v30,fine,tool0;\
SetDO DO10_1, 0;\
MoveL Offs(p10,358,87,0),v10,fine,tool0;\
SetDO DO10_1, 1;\
MoveL Offs(p10,386,87,0),v30,fine,tool0;\
SetDO DO10_1, 0;\
MoveL Offs(p10,402,87,0),v10,fine,tool0;\
SetDO DO10_1, 1;\
MoveL Offs(p10,418,87,0),v30,fine,tool0;\
SetDO DO10_1, 0;\
MoveL Offs(p10,443,87,0),v10,fine,tool0;\
SetDO DO10_1, 1;\
MoveL Offs(p10,158,88,0),v30,fine,tool0;\
SetDO DO10_1, 0;\
MoveL Offs(p10,163,88,0),v10,fine,tool0;\
SetDO DO10_1, 1;\
MoveL Offs(p10,166,88,0),v30,fine,tool0;\
SetDO DO10_1, 0;\
MoveL Offs(p10,175,88,0),v10,fine,tool0;\
SetDO DO10_1, 1;\
MoveL Offs(p10,192,88,0),v30,fine,tool0;\
SetDO DO10_1, 0;\
MoveL Offs(p10,198,88,0),v10,fine,tool0;\
SetDO DO10_1, 1;\
MoveL Offs(p10,259,88,0),v30,fine,tool0;\
SetDO DO10_1, 0;\
MoveL Offs(p10,259,88,0),v10,fine,tool0;\
SetDO DO10_1, 1;\
MoveL Offs(p10,279,88,0),v30,fine,tool0;\
SetDO DO10_1, 0;\
MoveL Offs(p10,285,88,0),v10,fine,tool0;\
SetDO DO10_1, 1;\
MoveL Offs(p10,316,88,0),v30,fine,tool0;\
SetDO DO10_1, 0;\
MoveL Offs(p10,327,88,0),v10,fine,tool0;\
SetDO DO10_1, 1;\
MoveL Offs(p10,350,88,0),v30,fine,tool0;\
SetDO DO10_1, 0;\
MoveL Offs(p10,356,88,0),v10,fine,tool0;\
SetDO DO10_1, 1;\
MoveL Offs(p10,387,88,0),v30,fine,tool0;\
SetDO DO10_1, 0;\
MoveL Offs(p10,398,88,0),v10,fine,tool0;\
SetDO DO10_1, 1;\
MoveL Offs(p10,418,88,0),v30,fine,tool0;\
SetDO DO10_1, 0;\
MoveL Offs(p10,443,88,0),v10,fine,tool0;\
SetDO DO10_1, 1;\
MoveL Offs(p10,158,89,0),v30,fine,tool0;\
SetDO DO10_1, 0;\
MoveL Offs(p10,174,89,0),v10,fine,tool0;\
SetDO DO10_1, 1;\
MoveL Offs(p10,192,89,0),v30,fine,tool0;\
SetDO DO10_1, 0;\
MoveL Offs(p10,198,89,0),v10,fine,tool0;\
SetDO DO10_1, 1;\
MoveL Offs(p10,252,89,0),v30,fine,tool0;\
SetDO DO10_1, 0;\
MoveL Offs(p10,259,89,0),v10,fine,tool0;\
SetDO DO10_1, 1;\
MoveL Offs(p10,280,89,0),v30,fine,tool0;\
SetDO DO10_1, 0;\
MoveL Offs(p10,283,89,0),v10,fine,tool0;\
SetDO DO10_1, 1;\
MoveL Offs(p10,316,89,0),v30,fine,tool0;\
SetDO DO10_1, 0;\
MoveL Offs(p10,324,89,0),v10,fine,tool0;\
SetDO DO10_1, 1;\
MoveL Offs(p10,351,89,0),v30,fine,tool0;\
SetDO DO10_1, 0;\
MoveL Offs(p10,354,89,0),v10,fine,tool0;\
SetDO DO10_1, 1;\
MoveL Offs(p10,387,89,0),v30,fine,tool0;\
SetDO DO10_1, 0;\
MoveL Offs(p10,394,89,0),v10,fine,tool0;\
SetDO DO10_1, 1;\
MoveL Offs(p10,418,89,0),v30,fine,tool0;\
SetDO DO10_1, 0;\
MoveL Offs(p10,443,89,0),v10,fine,tool0;\
SetDO DO10_1, 1;\
MoveL Offs(p10,158,90,0),v30,fine,tool0;\
SetDO DO10_1, 0;\
MoveL Offs(p10,173,90,0),v10,fine,tool0;\
SetDO DO10_1, 1;\
MoveL Offs(p10,191,90,0),v30,fine,tool0;\
SetDO DO10_1, 0;\
MoveL Offs(p10,198,90,0),v10,fine,tool0;\
SetDO DO10_1, 1;\
MoveL Offs(p10,253,90,0),v30,fine,tool0;\
SetDO DO10_1, 0;\
MoveL Offs(p10,256,90,0),v10,fine,tool0;\
SetDO DO10_1, 1;\
MoveL Offs(p10,259,90,0),v30,fine,tool0;\
SetDO DO10_1, 0;\
MoveL Offs(p10,259,90,0),v10,fine,tool0;\
SetDO DO10_1, 1;\
MoveL Offs(p10,280,90,0),v30,fine,tool0;\
SetDO DO10_1, 0;\
MoveL Offs(p10,282,90,0),v10,fine,tool0;\
SetDO DO10_1, 1;\
MoveL Offs(p10,316,90,0),v30,fine,tool0;\
SetDO DO10_1, 0;\
MoveL Offs(p10,320,90,0),v10,fine,tool0;\
SetDO DO10_1, 1;\
MoveL Offs(p10,351,90,0),v30,fine,tool0;\
SetDO DO10_1, 0;\
MoveL Offs(p10,353,90,0),v10,fine,tool0;\
SetDO DO10_1, 1;\
MoveL Offs(p10,387,90,0),v30,fine,tool0;\
SetDO DO10_1, 0;\
MoveL Offs(p10,391,90,0),v10,fine,tool0;\
SetDO DO10_1, 1;\
MoveL Offs(p10,418,90,0),v30,fine,tool0;\
SetDO DO10_1, 0;\
MoveL Offs(p10,443,90,0),v10,fine,tool0;\
SetDO DO10_1, 1;\
MoveL Offs(p10,158,91,0),v30,fine,tool0;\
SetDO DO10_1, 0;\
MoveL Offs(p10,171,91,0),v10,fine,tool0;\
SetDO DO10_1, 1;\
MoveL Offs(p10,187,91,0),v30,fine,tool0;\
SetDO DO10_1, 0;\
MoveL Offs(p10,197,91,0),v10,fine,tool0;\
SetDO DO10_1, 1;\
MoveL Offs(p10,259,91,0),v30,fine,tool0;\
SetDO DO10_1, 0;\
MoveL Offs(p10,259,91,0),v10,fine,tool0;\
SetDO DO10_1, 1;\
MoveL Offs(p10,280,91,0),v30,fine,tool0;\
SetDO DO10_1, 0;\
MoveL Offs(p10,280,91,0),v10,fine,tool0;\
SetDO DO10_1, 1;\
MoveL Offs(p10,316,91,0),v30,fine,tool0;\
SetDO DO10_1, 0;\
MoveL Offs(p10,316,91,0),v10,fine,tool0;\
SetDO DO10_1, 1;\
MoveL Offs(p10,386,91,0),v30,fine,tool0;\
SetDO DO10_1, 0;\
MoveL Offs(p10,387,91,0),v10,fine,tool0;\
SetDO DO10_1, 1;\
MoveL Offs(p10,418,91,0),v30,fine,tool0;\
SetDO DO10_1, 0;\
MoveL Offs(p10,443,91,0),v10,fine,tool0;\
SetDO DO10_1, 1;\
MoveL Offs(p10,158,92,0),v30,fine,tool0;\
SetDO DO10_1, 0;\
MoveL Offs(p10,170,92,0),v10,fine,tool0;\
SetDO DO10_1, 1;\
MoveL Offs(p10,186,92,0),v30,fine,tool0;\
SetDO DO10_1, 0;\
MoveL Offs(p10,197,92,0),v10,fine,tool0;\
SetDO DO10_1, 1;\
MoveL Offs(p10,259,92,0),v30,fine,tool0;\
SetDO DO10_1, 0;\
MoveL Offs(p10,259,92,0),v10,fine,tool0;\
SetDO DO10_1, 1;\
MoveL Offs(p10,280,92,0),v30,fine,tool0;\
SetDO DO10_1, 0;\
MoveL Offs(p10,281,92,0),v10,fine,tool0;\
SetDO DO10_1, 1;\
MoveL Offs(p10,314,92,0),v30,fine,tool0;\
SetDO DO10_1, 0;\
MoveL Offs(p10,316,92,0),v10,fine,tool0;\
SetDO DO10_1, 1;\
MoveL Offs(p10,351,92,0),v30,fine,tool0;\
SetDO DO10_1, 0;\
MoveL Offs(p10,352,92,0),v10,fine,tool0;\
SetDO DO10_1, 1;\
MoveL Offs(p10,385,92,0),v30,fine,tool0;\
SetDO DO10_1, 0;\
MoveL Offs(p10,387,92,0),v10,fine,tool0;\
SetDO DO10_1, 1;\
MoveL Offs(p10,418,92,0),v30,fine,tool0;\
SetDO DO10_1, 0;\
MoveL Offs(p10,443,92,0),v10,fine,tool0;\
SetDO DO10_1, 1;\
MoveL Offs(p10,99,93,0),v30,fine,tool0;\
SetDO DO10_1, 0;\
MoveL Offs(p10,110,93,0),v10,fine,tool0;\
SetDO DO10_1, 1;\
MoveL Offs(p10,158,93,0),v30,fine,tool0;\
SetDO DO10_1, 0;\
MoveL Offs(p10,169,93,0),v10,fine,tool0;\
SetDO DO10_1, 1;\
MoveL Offs(p10,186,93,0),v30,fine,tool0;\
SetDO DO10_1, 0;\
MoveL Offs(p10,196,93,0),v10,fine,tool0;\
SetDO DO10_1, 1;\
MoveL Offs(p10,279,93,0),v30,fine,tool0;\
SetDO DO10_1, 0;\
MoveL Offs(p10,282,93,0),v10,fine,tool0;\
SetDO DO10_1, 1;\
MoveL Offs(p10,312,93,0),v30,fine,tool0;\
SetDO DO10_1, 0;\
MoveL Offs(p10,317,93,0),v10,fine,tool0;\
SetDO DO10_1, 1;\
MoveL Offs(p10,350,93,0),v30,fine,tool0;\
SetDO DO10_1, 0;\
MoveL Offs(p10,353,93,0),v10,fine,tool0;\
SetDO DO10_1, 1;\
MoveL Offs(p10,383,93,0),v30,fine,tool0;\
SetDO DO10_1, 0;\
MoveL Offs(p10,388,93,0),v10,fine,tool0;\
SetDO DO10_1, 1;\
MoveL Offs(p10,418,93,0),v30,fine,tool0;\
SetDO DO10_1, 0;\
MoveL Offs(p10,443,93,0),v10,fine,tool0;\
SetDO DO10_1, 1;\
MoveL Offs(p10,95,94,0),v30,fine,tool0;\
SetDO DO10_1, 0;\
MoveL Offs(p10,114,94,0),v10,fine,tool0;\
SetDO DO10_1, 1;\
MoveL Offs(p10,158,94,0),v30,fine,tool0;\
SetDO DO10_1, 0;\
MoveL Offs(p10,168,94,0),v10,fine,tool0;\
SetDO DO10_1, 1;\
MoveL Offs(p10,186,94,0),v30,fine,tool0;\
SetDO DO10_1, 0;\
MoveL Offs(p10,195,94,0),v10,fine,tool0;\
SetDO DO10_1, 1;\
MoveL Offs(p10,278,94,0),v30,fine,tool0;\
SetDO DO10_1, 0;\
MoveL Offs(p10,283,94,0),v10,fine,tool0;\
SetDO DO10_1, 1;\
MoveL Offs(p10,311,94,0),v30,fine,tool0;\
SetDO DO10_1, 0;\
MoveL Offs(p10,317,94,0),v10,fine,tool0;\
SetDO DO10_1, 1;\
MoveL Offs(p10,349,94,0),v30,fine,tool0;\
SetDO DO10_1, 0;\
MoveL Offs(p10,354,94,0),v10,fine,tool0;\
SetDO DO10_1, 1;\
MoveL Offs(p10,382,94,0),v30,fine,tool0;\
SetDO DO10_1, 0;\
MoveL Offs(p10,388,94,0),v10,fine,tool0;\
SetDO DO10_1, 1;\
MoveL Offs(p10,418,94,0),v30,fine,tool0;\
SetDO DO10_1, 0;\
MoveL Offs(p10,443,94,0),v10,fine,tool0;\
SetDO DO10_1, 1;\
MoveL Offs(p10,92,95,0),v30,fine,tool0;\
SetDO DO10_1, 0;\
MoveL Offs(p10,116,95,0),v10,fine,tool0;\
SetDO DO10_1, 1;\
MoveL Offs(p10,158,95,0),v30,fine,tool0;\
SetDO DO10_1, 0;\
MoveL Offs(p10,166,95,0),v10,fine,tool0;\
SetDO DO10_1, 1;\
MoveL Offs(p10,186,95,0),v30,fine,tool0;\
SetDO DO10_1, 0;\
MoveL Offs(p10,194,95,0),v10,fine,tool0;\
SetDO DO10_1, 1;\
MoveL Offs(p10,277,95,0),v30,fine,tool0;\
SetDO DO10_1, 0;\
MoveL Offs(p10,284,95,0),v10,fine,tool0;\
SetDO DO10_1, 1;\
MoveL Offs(p10,309,95,0),v30,fine,tool0;\
SetDO DO10_1, 0;\
MoveL Offs(p10,318,95,0),v10,fine,tool0;\
SetDO DO10_1, 1;\
MoveL Offs(p10,348,95,0),v30,fine,tool0;\
SetDO DO10_1, 0;\
MoveL Offs(p10,355,95,0),v10,fine,tool0;\
SetDO DO10_1, 1;\
MoveL Offs(p10,380,95,0),v30,fine,tool0;\
SetDO DO10_1, 0;\
MoveL Offs(p10,389,95,0),v10,fine,tool0;\
SetDO DO10_1, 1;\
MoveL Offs(p10,418,95,0),v30,fine,tool0;\
SetDO DO10_1, 0;\
MoveL Offs(p10,443,95,0),v10,fine,tool0;\
SetDO DO10_1, 1;\
MoveL Offs(p10,90,96,0),v30,fine,tool0;\
SetDO DO10_1, 0;\
MoveL Offs(p10,118,96,0),v10,fine,tool0;\
SetDO DO10_1, 1;\
MoveL Offs(p10,158,96,0),v30,fine,tool0;\
SetDO DO10_1, 0;\
MoveL Offs(p10,165,96,0),v10,fine,tool0;\
SetDO DO10_1, 1;\
MoveL Offs(p10,186,96,0),v30,fine,tool0;\
SetDO DO10_1, 0;\
MoveL Offs(p10,193,96,0),v10,fine,tool0;\
SetDO DO10_1, 1;\
MoveL Offs(p10,276,96,0),v30,fine,tool0;\
SetDO DO10_1, 0;\
MoveL Offs(p10,285,96,0),v10,fine,tool0;\
SetDO DO10_1, 1;\
MoveL Offs(p10,307,96,0),v30,fine,tool0;\
SetDO DO10_1, 0;\
MoveL Offs(p10,318,96,0),v10,fine,tool0;\
SetDO DO10_1, 1;\
MoveL Offs(p10,347,96,0),v30,fine,tool0;\
SetDO DO10_1, 0;\
MoveL Offs(p10,356,96,0),v10,fine,tool0;\
SetDO DO10_1, 1;\
MoveL Offs(p10,378,96,0),v30,fine,tool0;\
SetDO DO10_1, 0;\
MoveL Offs(p10,389,96,0),v10,fine,tool0;\
SetDO DO10_1, 1;\
MoveL Offs(p10,418,96,0),v30,fine,tool0;\
SetDO DO10_1, 0;\
MoveL Offs(p10,443,96,0),v10,fine,tool0;\
SetDO DO10_1, 1;\
MoveL Offs(p10,89,97,0),v30,fine,tool0;\
SetDO DO10_1, 0;\
MoveL Offs(p10,120,97,0),v10,fine,tool0;\
SetDO DO10_1, 1;\
MoveL Offs(p10,158,97,0),v30,fine,tool0;\
SetDO DO10_1, 0;\
MoveL Offs(p10,164,97,0),v10,fine,tool0;\
SetDO DO10_1, 1;\
MoveL Offs(p10,186,97,0),v30,fine,tool0;\
SetDO DO10_1, 0;\
MoveL Offs(p10,191,97,0),v10,fine,tool0;\
SetDO DO10_1, 1;\
MoveL Offs(p10,275,97,0),v30,fine,tool0;\
SetDO DO10_1, 0;\
MoveL Offs(p10,286,97,0),v10,fine,tool0;\
SetDO DO10_1, 1;\
MoveL Offs(p10,305,97,0),v30,fine,tool0;\
SetDO DO10_1, 0;\
MoveL Offs(p10,319,97,0),v10,fine,tool0;\
SetDO DO10_1, 1;\
MoveL Offs(p10,346,97,0),v30,fine,tool0;\
SetDO DO10_1, 0;\
MoveL Offs(p10,357,97,0),v10,fine,tool0;\
SetDO DO10_1, 1;\
MoveL Offs(p10,376,97,0),v30,fine,tool0;\
SetDO DO10_1, 0;\
MoveL Offs(p10,390,97,0),v10,fine,tool0;\
SetDO DO10_1, 1;\
MoveL Offs(p10,418,97,0),v30,fine,tool0;\
SetDO DO10_1, 0;\
MoveL Offs(p10,443,97,0),v10,fine,tool0;\
SetDO DO10_1, 1;\
MoveL Offs(p10,87,98,0),v30,fine,tool0;\
SetDO DO10_1, 0;\
MoveL Offs(p10,122,98,0),v10,fine,tool0;\
SetDO DO10_1, 1;\
MoveL Offs(p10,159,98,0),v30,fine,tool0;\
SetDO DO10_1, 0;\
MoveL Offs(p10,162,98,0),v10,fine,tool0;\
SetDO DO10_1, 1;\
MoveL Offs(p10,273,98,0),v30,fine,tool0;\
SetDO DO10_1, 0;\
MoveL Offs(p10,287,98,0),v10,fine,tool0;\
SetDO DO10_1, 1;\
MoveL Offs(p10,304,98,0),v30,fine,tool0;\
SetDO DO10_1, 0;\
MoveL Offs(p10,319,98,0),v10,fine,tool0;\
SetDO DO10_1, 1;\
MoveL Offs(p10,345,98,0),v30,fine,tool0;\
SetDO DO10_1, 0;\
MoveL Offs(p10,358,98,0),v10,fine,tool0;\
SetDO DO10_1, 1;\
MoveL Offs(p10,375,98,0),v30,fine,tool0;\
SetDO DO10_1, 0;\
MoveL Offs(p10,390,98,0),v10,fine,tool0;\
SetDO DO10_1, 1;\
MoveL Offs(p10,418,98,0),v30,fine,tool0;\
SetDO DO10_1, 0;\
MoveL Offs(p10,443,98,0),v10,fine,tool0;\
SetDO DO10_1, 1;\
MoveL Offs(p10,86,99,0),v30,fine,tool0;\
SetDO DO10_1, 0;\
MoveL Offs(p10,96,99,0),v10,fine,tool0;\
SetDO DO10_1, 1;\
MoveL Offs(p10,112,99,0),v30,fine,tool0;\
SetDO DO10_1, 0;\
MoveL Offs(p10,123,99,0),v10,fine,tool0;\
SetDO DO10_1, 1;\
MoveL Offs(p10,273,99,0),v30,fine,tool0;\
SetDO DO10_1, 0;\
MoveL Offs(p10,288,99,0),v10,fine,tool0;\
SetDO DO10_1, 1;\
MoveL Offs(p10,302,99,0),v30,fine,tool0;\
SetDO DO10_1, 0;\
MoveL Offs(p10,320,99,0),v10,fine,tool0;\
SetDO DO10_1, 1;\
MoveL Offs(p10,344,99,0),v30,fine,tool0;\
SetDO DO10_1, 0;\
MoveL Offs(p10,359,99,0),v10,fine,tool0;\
SetDO DO10_1, 1;\
MoveL Offs(p10,373,99,0),v30,fine,tool0;\
SetDO DO10_1, 0;\
MoveL Offs(p10,391,99,0),v10,fine,tool0;\
SetDO DO10_1, 1;\
MoveL Offs(p10,418,99,0),v30,fine,tool0;\
SetDO DO10_1, 0;\
MoveL Offs(p10,443,99,0),v10,fine,tool0;\
SetDO DO10_1, 1;\
MoveL Offs(p10,85,100,0),v30,fine,tool0;\
SetDO DO10_1, 0;\
MoveL Offs(p10,94,100,0),v10,fine,tool0;\
SetDO DO10_1, 1;\
MoveL Offs(p10,115,100,0),v30,fine,tool0;\
SetDO DO10_1, 0;\
MoveL Offs(p10,124,100,0),v10,fine,tool0;\
SetDO DO10_1, 1;\
MoveL Offs(p10,272,100,0),v30,fine,tool0;\
SetDO DO10_1, 0;\
MoveL Offs(p10,289,100,0),v10,fine,tool0;\
SetDO DO10_1, 1;\
MoveL Offs(p10,300,100,0),v30,fine,tool0;\
SetDO DO10_1, 0;\
MoveL Offs(p10,321,100,0),v10,fine,tool0;\
SetDO DO10_1, 1;\
MoveL Offs(p10,343,100,0),v30,fine,tool0;\
SetDO DO10_1, 0;\
MoveL Offs(p10,360,100,0),v10,fine,tool0;\
SetDO DO10_1, 1;\
MoveL Offs(p10,371,100,0),v30,fine,tool0;\
SetDO DO10_1, 0;\
MoveL Offs(p10,392,100,0),v10,fine,tool0;\
SetDO DO10_1, 1;\
MoveL Offs(p10,418,100,0),v30,fine,tool0;\
SetDO DO10_1, 0;\
MoveL Offs(p10,443,100,0),v10,fine,tool0;\
SetDO DO10_1, 1;\
MoveL Offs(p10,83,101,0),v30,fine,tool0;\
SetDO DO10_1, 0;\
MoveL Offs(p10,91,101,0),v10,fine,tool0;\
SetDO DO10_1, 1;\
MoveL Offs(p10,117,101,0),v30,fine,tool0;\
SetDO DO10_1, 0;\
MoveL Offs(p10,125,101,0),v10,fine,tool0;\
SetDO DO10_1, 1;\
MoveL Offs(p10,271,101,0),v30,fine,tool0;\
SetDO DO10_1, 0;\
MoveL Offs(p10,290,101,0),v10,fine,tool0;\
SetDO DO10_1, 1;\
MoveL Offs(p10,298,101,0),v30,fine,tool0;\
SetDO DO10_1, 0;\
MoveL Offs(p10,321,101,0),v10,fine,tool0;\
SetDO DO10_1, 1;\
MoveL Offs(p10,342,101,0),v30,fine,tool0;\
SetDO DO10_1, 0;\
MoveL Offs(p10,361,101,0),v10,fine,tool0;\
SetDO DO10_1, 1;\
MoveL Offs(p10,369,101,0),v30,fine,tool0;\
SetDO DO10_1, 0;\
MoveL Offs(p10,392,101,0),v10,fine,tool0;\
SetDO DO10_1, 1;\
MoveL Offs(p10,418,101,0),v30,fine,tool0;\
SetDO DO10_1, 0;\
MoveL Offs(p10,443,101,0),v10,fine,tool0;\
SetDO DO10_1, 1;\
MoveL Offs(p10,82,102,0),v30,fine,tool0;\
SetDO DO10_1, 0;\
MoveL Offs(p10,90,102,0),v10,fine,tool0;\
SetDO DO10_1, 1;\
MoveL Offs(p10,119,102,0),v30,fine,tool0;\
SetDO DO10_1, 0;\
MoveL Offs(p10,126,102,0),v10,fine,tool0;\
SetDO DO10_1, 1;\
MoveL Offs(p10,270,102,0),v30,fine,tool0;\
SetDO DO10_1, 0;\
MoveL Offs(p10,291,102,0),v10,fine,tool0;\
SetDO DO10_1, 1;\
MoveL Offs(p10,297,102,0),v30,fine,tool0;\
SetDO DO10_1, 0;\
MoveL Offs(p10,322,102,0),v10,fine,tool0;\
SetDO DO10_1, 1;\
MoveL Offs(p10,341,102,0),v30,fine,tool0;\
SetDO DO10_1, 0;\
MoveL Offs(p10,362,102,0),v10,fine,tool0;\
SetDO DO10_1, 1;\
MoveL Offs(p10,368,102,0),v30,fine,tool0;\
SetDO DO10_1, 0;\
MoveL Offs(p10,393,102,0),v10,fine,tool0;\
SetDO DO10_1, 1;\
MoveL Offs(p10,418,102,0),v30,fine,tool0;\
SetDO DO10_1, 0;\
MoveL Offs(p10,443,102,0),v10,fine,tool0;\
SetDO DO10_1, 1;\
MoveL Offs(p10,81,103,0),v30,fine,tool0;\
SetDO DO10_1, 0;\
MoveL Offs(p10,88,103,0),v10,fine,tool0;\
SetDO DO10_1, 1;\
MoveL Offs(p10,121,103,0),v30,fine,tool0;\
SetDO DO10_1, 0;\
MoveL Offs(p10,127,103,0),v10,fine,tool0;\
SetDO DO10_1, 1;\
MoveL Offs(p10,269,103,0),v30,fine,tool0;\
SetDO DO10_1, 0;\
MoveL Offs(p10,292,103,0),v10,fine,tool0;\
SetDO DO10_1, 1;\
MoveL Offs(p10,295,103,0),v30,fine,tool0;\
SetDO DO10_1, 0;\
MoveL Offs(p10,322,103,0),v10,fine,tool0;\
SetDO DO10_1, 1;\
MoveL Offs(p10,340,103,0),v30,fine,tool0;\
SetDO DO10_1, 0;\
MoveL Offs(p10,363,103,0),v10,fine,tool0;\
SetDO DO10_1, 1;\
MoveL Offs(p10,366,103,0),v30,fine,tool0;\
SetDO DO10_1, 0;\
MoveL Offs(p10,393,103,0),v10,fine,tool0;\
SetDO DO10_1, 1;\
MoveL Offs(p10,418,103,0),v30,fine,tool0;\
SetDO DO10_1, 0;\
MoveL Offs(p10,443,103,0),v10,fine,tool0;\
SetDO DO10_1, 1;\
MoveL Offs(p10,81,104,0),v30,fine,tool0;\
SetDO DO10_1, 0;\
MoveL Offs(p10,87,104,0),v10,fine,tool0;\
SetDO DO10_1, 1;\
MoveL Offs(p10,122,104,0),v30,fine,tool0;\
SetDO DO10_1, 0;\
MoveL Offs(p10,128,104,0),v10,fine,tool0;\
SetDO DO10_1, 1;\
MoveL Offs(p10,268,104,0),v30,fine,tool0;\
SetDO DO10_1, 0;\
MoveL Offs(p10,323,104,0),v10,fine,tool0;\
SetDO DO10_1, 1;\
MoveL Offs(p10,339,104,0),v30,fine,tool0;\
SetDO DO10_1, 0;\
MoveL Offs(p10,394,104,0),v10,fine,tool0;\
SetDO DO10_1, 1;\
MoveL Offs(p10,418,104,0),v30,fine,tool0;\
SetDO DO10_1, 0;\
MoveL Offs(p10,443,104,0),v10,fine,tool0;\
SetDO DO10_1, 1;\
MoveL Offs(p10,80,105,0),v30,fine,tool0;\
SetDO DO10_1, 0;\
MoveL Offs(p10,86,105,0),v10,fine,tool0;\
SetDO DO10_1, 1;\
MoveL Offs(p10,123,105,0),v30,fine,tool0;\
SetDO DO10_1, 0;\
MoveL Offs(p10,129,105,0),v10,fine,tool0;\
SetDO DO10_1, 1;\
MoveL Offs(p10,267,105,0),v30,fine,tool0;\
SetDO DO10_1, 0;\
MoveL Offs(p10,323,105,0),v10,fine,tool0;\
SetDO DO10_1, 1;\
MoveL Offs(p10,338,105,0),v30,fine,tool0;\
SetDO DO10_1, 0;\
MoveL Offs(p10,394,105,0),v10,fine,tool0;\
SetDO DO10_1, 1;\
MoveL Offs(p10,418,105,0),v30,fine,tool0;\
SetDO DO10_1, 0;\
MoveL Offs(p10,443,105,0),v10,fine,tool0;\
SetDO DO10_1, 1;\
MoveL Offs(p10,79,106,0),v30,fine,tool0;\
SetDO DO10_1, 0;\
MoveL Offs(p10,85,106,0),v10,fine,tool0;\
SetDO DO10_1, 1;\
MoveL Offs(p10,124,106,0),v30,fine,tool0;\
SetDO DO10_1, 0;\
MoveL Offs(p10,130,106,0),v10,fine,tool0;\
SetDO DO10_1, 1;\
MoveL Offs(p10,167,106,0),v30,fine,tool0;\
SetDO DO10_1, 0;\
MoveL Offs(p10,189,106,0),v10,fine,tool0;\
SetDO DO10_1, 1;\
MoveL Offs(p10,266,106,0),v30,fine,tool0;\
SetDO DO10_1, 0;\
MoveL Offs(p10,291,106,0),v10,fine,tool0;\
SetDO DO10_1, 1;\
MoveL Offs(p10,295,106,0),v30,fine,tool0;\
SetDO DO10_1, 0;\
MoveL Offs(p10,324,106,0),v10,fine,tool0;\
SetDO DO10_1, 1;\
MoveL Offs(p10,337,106,0),v30,fine,tool0;\
SetDO DO10_1, 0;\
MoveL Offs(p10,362,106,0),v10,fine,tool0;\
SetDO DO10_1, 1;\
MoveL Offs(p10,366,106,0),v30,fine,tool0;\
SetDO DO10_1, 0;\
MoveL Offs(p10,395,106,0),v10,fine,tool0;\
SetDO DO10_1, 1;\
MoveL Offs(p10,418,106,0),v30,fine,tool0;\
SetDO DO10_1, 0;\
MoveL Offs(p10,443,106,0),v10,fine,tool0;\
SetDO DO10_1, 1;\
MoveL Offs(p10,78,107,0),v30,fine,tool0;\
SetDO DO10_1, 0;\
MoveL Offs(p10,84,107,0),v10,fine,tool0;\
SetDO DO10_1, 1;\
MoveL Offs(p10,125,107,0),v30,fine,tool0;\
SetDO DO10_1, 0;\
MoveL Offs(p10,130,107,0),v10,fine,tool0;\
SetDO DO10_1, 1;\
MoveL Offs(p10,164,107,0),v30,fine,tool0;\
SetDO DO10_1, 0;\
MoveL Offs(p10,192,107,0),v10,fine,tool0;\
SetDO DO10_1, 1;\
MoveL Offs(p10,265,107,0),v30,fine,tool0;\
SetDO DO10_1, 0;\
MoveL Offs(p10,290,107,0),v10,fine,tool0;\
SetDO DO10_1, 1;\
MoveL Offs(p10,296,107,0),v30,fine,tool0;\
SetDO DO10_1, 0;\
MoveL Offs(p10,325,107,0),v10,fine,tool0;\
SetDO DO10_1, 1;\
MoveL Offs(p10,336,107,0),v30,fine,tool0;\
SetDO DO10_1, 0;\
MoveL Offs(p10,361,107,0),v10,fine,tool0;\
SetDO DO10_1, 1;\
MoveL Offs(p10,367,107,0),v30,fine,tool0;\
SetDO DO10_1, 0;\
MoveL Offs(p10,396,107,0),v10,fine,tool0;\
SetDO DO10_1, 1;\
MoveL Offs(p10,418,107,0),v30,fine,tool0;\
SetDO DO10_1, 0;\
MoveL Offs(p10,443,107,0),v10,fine,tool0;\
SetDO DO10_1, 1;\
MoveL Offs(p10,78,108,0),v30,fine,tool0;\
SetDO DO10_1, 0;\
MoveL Offs(p10,83,108,0),v10,fine,tool0;\
SetDO DO10_1, 1;\
MoveL Offs(p10,126,108,0),v30,fine,tool0;\
SetDO DO10_1, 0;\
MoveL Offs(p10,131,108,0),v10,fine,tool0;\
SetDO DO10_1, 1;\
MoveL Offs(p10,162,108,0),v30,fine,tool0;\
SetDO DO10_1, 0;\
MoveL Offs(p10,194,108,0),v10,fine,tool0;\
SetDO DO10_1, 1;\
MoveL Offs(p10,264,108,0),v30,fine,tool0;\
SetDO DO10_1, 0;\
MoveL Offs(p10,289,108,0),v10,fine,tool0;\
SetDO DO10_1, 1;\
MoveL Offs(p10,296,108,0),v30,fine,tool0;\
SetDO DO10_1, 0;\
MoveL Offs(p10,325,108,0),v10,fine,tool0;\
SetDO DO10_1, 1;\
MoveL Offs(p10,335,108,0),v30,fine,tool0;\
SetDO DO10_1, 0;\
MoveL Offs(p10,360,108,0),v10,fine,tool0;\
SetDO DO10_1, 1;\
MoveL Offs(p10,367,108,0),v30,fine,tool0;\
SetDO DO10_1, 0;\
MoveL Offs(p10,396,108,0),v10,fine,tool0;\
SetDO DO10_1, 1;\
MoveL Offs(p10,418,108,0),v30,fine,tool0;\
SetDO DO10_1, 0;\
MoveL Offs(p10,443,108,0),v10,fine,tool0;\
SetDO DO10_1, 1;\
MoveL Offs(p10,77,109,0),v30,fine,tool0;\
SetDO DO10_1, 0;\
MoveL Offs(p10,82,109,0),v10,fine,tool0;\
SetDO DO10_1, 1;\
MoveL Offs(p10,127,109,0),v30,fine,tool0;\
SetDO DO10_1, 0;\
MoveL Offs(p10,131,109,0),v10,fine,tool0;\
SetDO DO10_1, 1;\
MoveL Offs(p10,161,109,0),v30,fine,tool0;\
SetDO DO10_1, 0;\
MoveL Offs(p10,195,109,0),v10,fine,tool0;\
SetDO DO10_1, 1;\
MoveL Offs(p10,250,109,0),v30,fine,tool0;\
SetDO DO10_1, 0;\
MoveL Offs(p10,250,109,0),v10,fine,tool0;\
SetDO DO10_1, 1;\
MoveL Offs(p10,263,109,0),v30,fine,tool0;\
SetDO DO10_1, 0;\
MoveL Offs(p10,288,109,0),v10,fine,tool0;\
SetDO DO10_1, 1;\
MoveL Offs(p10,297,109,0),v30,fine,tool0;\
SetDO DO10_1, 0;\
MoveL Offs(p10,326,109,0),v10,fine,tool0;\
SetDO DO10_1, 1;\
MoveL Offs(p10,334,109,0),v30,fine,tool0;\
SetDO DO10_1, 0;\
MoveL Offs(p10,359,109,0),v10,fine,tool0;\
SetDO DO10_1, 1;\
MoveL Offs(p10,368,109,0),v30,fine,tool0;\
SetDO DO10_1, 0;\
MoveL Offs(p10,397,109,0),v10,fine,tool0;\
SetDO DO10_1, 1;\
MoveL Offs(p10,416,109,0),v30,fine,tool0;\
SetDO DO10_1, 0;\
MoveL Offs(p10,418,109,0),v10,fine,tool0;\
SetDO DO10_1, 1;\
MoveL Offs(p10,442,109,0),v30,fine,tool0;\
SetDO DO10_1, 0;\
MoveL Offs(p10,444,109,0),v10,fine,tool0;\
SetDO DO10_1, 1;\
MoveL Offs(p10,469,109,0),v30,fine,tool0;\
SetDO DO10_1, 0;\
MoveL Offs(p10,469,109,0),v10,fine,tool0;\
SetDO DO10_1, 1;\
MoveL Offs(p10,77,110,0),v30,fine,tool0;\
SetDO DO10_1, 0;\
MoveL Offs(p10,81,110,0),v10,fine,tool0;\
SetDO DO10_1, 1;\
MoveL Offs(p10,127,110,0),v30,fine,tool0;\
SetDO DO10_1, 0;\
MoveL Offs(p10,132,110,0),v10,fine,tool0;\
SetDO DO10_1, 1;\
MoveL Offs(p10,160,110,0),v30,fine,tool0;\
SetDO DO10_1, 0;\
MoveL Offs(p10,196,110,0),v10,fine,tool0;\
SetDO DO10_1, 1;\
MoveL Offs(p10,249,110,0),v30,fine,tool0;\
SetDO DO10_1, 0;\
MoveL Offs(p10,252,110,0),v10,fine,tool0;\
SetDO DO10_1, 1;\
MoveL Offs(p10,262,110,0),v30,fine,tool0;\
SetDO DO10_1, 0;\
MoveL Offs(p10,287,110,0),v10,fine,tool0;\
SetDO DO10_1, 1;\
MoveL Offs(p10,297,110,0),v30,fine,tool0;\
SetDO DO10_1, 0;\
MoveL Offs(p10,326,110,0),v10,fine,tool0;\
SetDO DO10_1, 1;\
MoveL Offs(p10,333,110,0),v30,fine,tool0;\
SetDO DO10_1, 0;\
MoveL Offs(p10,358,110,0),v10,fine,tool0;\
SetDO DO10_1, 1;\
MoveL Offs(p10,368,110,0),v30,fine,tool0;\
SetDO DO10_1, 0;\
MoveL Offs(p10,397,110,0),v10,fine,tool0;\
SetDO DO10_1, 1;\
MoveL Offs(p10,412,110,0),v30,fine,tool0;\
SetDO DO10_1, 0;\
MoveL Offs(p10,417,110,0),v10,fine,tool0;\
SetDO DO10_1, 1;\
MoveL Offs(p10,443,110,0),v30,fine,tool0;\
SetDO DO10_1, 0;\
MoveL Offs(p10,446,110,0),v10,fine,tool0;\
SetDO DO10_1, 1;\
MoveL Offs(p10,467,110,0),v30,fine,tool0;\
SetDO DO10_1, 0;\
MoveL Offs(p10,470,110,0),v10,fine,tool0;\
SetDO DO10_1, 1;\
MoveL Offs(p10,76,111,0),v30,fine,tool0;\
SetDO DO10_1, 0;\
MoveL Offs(p10,81,111,0),v10,fine,tool0;\
SetDO DO10_1, 1;\
MoveL Offs(p10,128,111,0),v30,fine,tool0;\
SetDO DO10_1, 0;\
MoveL Offs(p10,132,111,0),v10,fine,tool0;\
SetDO DO10_1, 1;\
MoveL Offs(p10,159,111,0),v30,fine,tool0;\
SetDO DO10_1, 0;\
MoveL Offs(p10,196,111,0),v10,fine,tool0;\
SetDO DO10_1, 1;\
MoveL Offs(p10,249,111,0),v30,fine,tool0;\
SetDO DO10_1, 0;\
MoveL Offs(p10,254,111,0),v10,fine,tool0;\
SetDO DO10_1, 1;\
MoveL Offs(p10,261,111,0),v30,fine,tool0;\
SetDO DO10_1, 0;\
MoveL Offs(p10,286,111,0),v10,fine,tool0;\
SetDO DO10_1, 1;\
MoveL Offs(p10,298,111,0),v30,fine,tool0;\
SetDO DO10_1, 0;\
MoveL Offs(p10,327,111,0),v10,fine,tool0;\
SetDO DO10_1, 1;\
MoveL Offs(p10,332,111,0),v30,fine,tool0;\
SetDO DO10_1, 0;\
MoveL Offs(p10,357,111,0),v10,fine,tool0;\
SetDO DO10_1, 1;\
MoveL Offs(p10,369,111,0),v30,fine,tool0;\
SetDO DO10_1, 0;\
MoveL Offs(p10,398,111,0),v10,fine,tool0;\
SetDO DO10_1, 1;\
MoveL Offs(p10,408,111,0),v30,fine,tool0;\
SetDO DO10_1, 0;\
MoveL Offs(p10,418,111,0),v10,fine,tool0;\
SetDO DO10_1, 1;\
MoveL Offs(p10,443,111,0),v30,fine,tool0;\
SetDO DO10_1, 0;\
MoveL Offs(p10,447,111,0),v10,fine,tool0;\
SetDO DO10_1, 1;\
MoveL Offs(p10,465,111,0),v30,fine,tool0;\
SetDO DO10_1, 0;\
MoveL Offs(p10,470,111,0),v10,fine,tool0;\
SetDO DO10_1, 1;\
MoveL Offs(p10,76,112,0),v30,fine,tool0;\
SetDO DO10_1, 0;\
MoveL Offs(p10,80,112,0),v10,fine,tool0;\
SetDO DO10_1, 1;\
MoveL Offs(p10,128,112,0),v30,fine,tool0;\
SetDO DO10_1, 0;\
MoveL Offs(p10,133,112,0),v10,fine,tool0;\
SetDO DO10_1, 1;\
MoveL Offs(p10,159,112,0),v30,fine,tool0;\
SetDO DO10_1, 0;\
MoveL Offs(p10,197,112,0),v10,fine,tool0;\
SetDO DO10_1, 1;\
MoveL Offs(p10,248,112,0),v30,fine,tool0;\
SetDO DO10_1, 0;\
MoveL Offs(p10,255,112,0),v10,fine,tool0;\
SetDO DO10_1, 1;\
MoveL Offs(p10,260,112,0),v30,fine,tool0;\
SetDO DO10_1, 0;\
MoveL Offs(p10,285,112,0),v10,fine,tool0;\
SetDO DO10_1, 1;\
MoveL Offs(p10,298,112,0),v30,fine,tool0;\
SetDO DO10_1, 0;\
MoveL Offs(p10,327,112,0),v10,fine,tool0;\
SetDO DO10_1, 1;\
MoveL Offs(p10,331,112,0),v30,fine,tool0;\
SetDO DO10_1, 0;\
MoveL Offs(p10,356,112,0),v10,fine,tool0;\
SetDO DO10_1, 1;\
MoveL Offs(p10,370,112,0),v30,fine,tool0;\
SetDO DO10_1, 0;\
MoveL Offs(p10,398,112,0),v10,fine,tool0;\
SetDO DO10_1, 1;\
MoveL Offs(p10,404,112,0),v30,fine,tool0;\
SetDO DO10_1, 0;\
MoveL Offs(p10,418,112,0),v10,fine,tool0;\
SetDO DO10_1, 1;\
MoveL Offs(p10,442,112,0),v30,fine,tool0;\
SetDO DO10_1, 0;\
MoveL Offs(p10,449,112,0),v10,fine,tool0;\
SetDO DO10_1, 1;\
MoveL Offs(p10,464,112,0),v30,fine,tool0;\
SetDO DO10_1, 0;\
MoveL Offs(p10,471,112,0),v10,fine,tool0;\
SetDO DO10_1, 1;\
MoveL Offs(p10,75,113,0),v30,fine,tool0;\
SetDO DO10_1, 0;\
MoveL Offs(p10,80,113,0),v10,fine,tool0;\
SetDO DO10_1, 1;\
MoveL Offs(p10,129,113,0),v30,fine,tool0;\
SetDO DO10_1, 0;\
MoveL Offs(p10,133,113,0),v10,fine,tool0;\
SetDO DO10_1, 1;\
MoveL Offs(p10,158,113,0),v30,fine,tool0;\
SetDO DO10_1, 0;\
MoveL Offs(p10,167,113,0),v10,fine,tool0;\
SetDO DO10_1, 1;\
MoveL Offs(p10,189,113,0),v30,fine,tool0;\
SetDO DO10_1, 0;\
MoveL Offs(p10,197,113,0),v10,fine,tool0;\
SetDO DO10_1, 1;\
MoveL Offs(p10,248,113,0),v30,fine,tool0;\
SetDO DO10_1, 0;\
MoveL Offs(p10,284,113,0),v10,fine,tool0;\
SetDO DO10_1, 1;\
MoveL Offs(p10,299,113,0),v30,fine,tool0;\
SetDO DO10_1, 0;\
MoveL Offs(p10,355,113,0),v10,fine,tool0;\
SetDO DO10_1, 1;\
MoveL Offs(p10,370,113,0),v30,fine,tool0;\
SetDO DO10_1, 0;\
MoveL Offs(p10,418,113,0),v10,fine,tool0;\
SetDO DO10_1, 1;\
MoveL Offs(p10,441,113,0),v30,fine,tool0;\
SetDO DO10_1, 0;\
MoveL Offs(p10,471,113,0),v10,fine,tool0;\
SetDO DO10_1, 1;\
MoveL Offs(p10,75,114,0),v30,fine,tool0;\
SetDO DO10_1, 0;\
MoveL Offs(p10,79,114,0),v10,fine,tool0;\
SetDO DO10_1, 1;\
MoveL Offs(p10,129,114,0),v30,fine,tool0;\
SetDO DO10_1, 0;\
MoveL Offs(p10,134,114,0),v10,fine,tool0;\
SetDO DO10_1, 1;\
MoveL Offs(p10,158,114,0),v30,fine,tool0;\
SetDO DO10_1, 0;\
MoveL Offs(p10,164,114,0),v10,fine,tool0;\
SetDO DO10_1, 1;\
MoveL Offs(p10,191,114,0),v30,fine,tool0;\
SetDO DO10_1, 0;\
MoveL Offs(p10,198,114,0),v10,fine,tool0;\
SetDO DO10_1, 1;\
MoveL Offs(p10,247,114,0),v30,fine,tool0;\
SetDO DO10_1, 0;\
MoveL Offs(p10,283,114,0),v10,fine,tool0;\
SetDO DO10_1, 1;\
MoveL Offs(p10,300,114,0),v30,fine,tool0;\
SetDO DO10_1, 0;\
MoveL Offs(p10,354,114,0),v10,fine,tool0;\
SetDO DO10_1, 1;\
MoveL Offs(p10,371,114,0),v30,fine,tool0;\
SetDO DO10_1, 0;\
MoveL Offs(p10,418,114,0),v10,fine,tool0;\
SetDO DO10_1, 1;\
MoveL Offs(p10,441,114,0),v30,fine,tool0;\
SetDO DO10_1, 0;\
MoveL Offs(p10,472,114,0),v10,fine,tool0;\
SetDO DO10_1, 1;\
MoveL Offs(p10,75,115,0),v30,fine,tool0;\
SetDO DO10_1, 0;\
MoveL Offs(p10,79,115,0),v10,fine,tool0;\
SetDO DO10_1, 1;\
MoveL Offs(p10,130,115,0),v30,fine,tool0;\
SetDO DO10_1, 0;\
MoveL Offs(p10,134,115,0),v10,fine,tool0;\
SetDO DO10_1, 1;\
MoveL Offs(p10,158,115,0),v30,fine,tool0;\
SetDO DO10_1, 0;\
MoveL Offs(p10,163,115,0),v10,fine,tool0;\
SetDO DO10_1, 1;\
MoveL Offs(p10,192,115,0),v30,fine,tool0;\
SetDO DO10_1, 0;\
MoveL Offs(p10,198,115,0),v10,fine,tool0;\
SetDO DO10_1, 1;\
MoveL Offs(p10,246,115,0),v30,fine,tool0;\
SetDO DO10_1, 0;\
MoveL Offs(p10,256,115,0),v10,fine,tool0;\
SetDO DO10_1, 1;\
MoveL Offs(p10,260,115,0),v30,fine,tool0;\
SetDO DO10_1, 0;\
MoveL Offs(p10,282,115,0),v10,fine,tool0;\
SetDO DO10_1, 1;\
MoveL Offs(p10,300,115,0),v30,fine,tool0;\
SetDO DO10_1, 0;\
MoveL Offs(p10,326,115,0),v10,fine,tool0;\
SetDO DO10_1, 1;\
MoveL Offs(p10,331,115,0),v30,fine,tool0;\
SetDO DO10_1, 0;\
MoveL Offs(p10,353,115,0),v10,fine,tool0;\
SetDO DO10_1, 1;\
MoveL Offs(p10,371,115,0),v30,fine,tool0;\
SetDO DO10_1, 0;\
MoveL Offs(p10,397,115,0),v10,fine,tool0;\
SetDO DO10_1, 1;\
MoveL Offs(p10,401,115,0),v30,fine,tool0;\
SetDO DO10_1, 0;\
MoveL Offs(p10,419,115,0),v10,fine,tool0;\
SetDO DO10_1, 1;\
MoveL Offs(p10,440,115,0),v30,fine,tool0;\
SetDO DO10_1, 0;\
MoveL Offs(p10,473,115,0),v10,fine,tool0;\
SetDO DO10_1, 1;\
MoveL Offs(p10,75,116,0),v30,fine,tool0;\
SetDO DO10_1, 0;\
MoveL Offs(p10,79,116,0),v10,fine,tool0;\
SetDO DO10_1, 1;\
MoveL Offs(p10,130,116,0),v30,fine,tool0;\
SetDO DO10_1, 0;\
MoveL Offs(p10,134,116,0),v10,fine,tool0;\
SetDO DO10_1, 1;\
MoveL Offs(p10,158,116,0),v30,fine,tool0;\
SetDO DO10_1, 0;\
MoveL Offs(p10,163,116,0),v10,fine,tool0;\
SetDO DO10_1, 1;\
MoveL Offs(p10,193,116,0),v30,fine,tool0;\
SetDO DO10_1, 0;\
MoveL Offs(p10,198,116,0),v10,fine,tool0;\
SetDO DO10_1, 1;\
MoveL Offs(p10,246,116,0),v30,fine,tool0;\
SetDO DO10_1, 0;\
MoveL Offs(p10,256,116,0),v10,fine,tool0;\
SetDO DO10_1, 1;\
MoveL Offs(p10,261,116,0),v30,fine,tool0;\
SetDO DO10_1, 0;\
MoveL Offs(p10,281,116,0),v10,fine,tool0;\
SetDO DO10_1, 1;\
MoveL Offs(p10,301,116,0),v30,fine,tool0;\
SetDO DO10_1, 0;\
MoveL Offs(p10,324,116,0),v10,fine,tool0;\
SetDO DO10_1, 1;\
MoveL Offs(p10,332,116,0),v30,fine,tool0;\
SetDO DO10_1, 0;\
MoveL Offs(p10,352,116,0),v10,fine,tool0;\
SetDO DO10_1, 1;\
MoveL Offs(p10,372,116,0),v30,fine,tool0;\
SetDO DO10_1, 0;\
MoveL Offs(p10,395,116,0),v10,fine,tool0;\
SetDO DO10_1, 1;\
MoveL Offs(p10,401,116,0),v30,fine,tool0;\
SetDO DO10_1, 0;\
MoveL Offs(p10,419,116,0),v10,fine,tool0;\
SetDO DO10_1, 1;\
MoveL Offs(p10,440,116,0),v30,fine,tool0;\
SetDO DO10_1, 0;\
MoveL Offs(p10,473,116,0),v10,fine,tool0;\
SetDO DO10_1, 1;\
MoveL Offs(p10,74,117,0),v30,fine,tool0;\
SetDO DO10_1, 0;\
MoveL Offs(p10,78,117,0),v10,fine,tool0;\
SetDO DO10_1, 1;\
MoveL Offs(p10,130,117,0),v30,fine,tool0;\
SetDO DO10_1, 0;\
MoveL Offs(p10,134,117,0),v10,fine,tool0;\
SetDO DO10_1, 1;\
MoveL Offs(p10,158,117,0),v30,fine,tool0;\
SetDO DO10_1, 0;\
MoveL Offs(p10,163,117,0),v10,fine,tool0;\
SetDO DO10_1, 1;\
MoveL Offs(p10,193,117,0),v30,fine,tool0;\
SetDO DO10_1, 0;\
MoveL Offs(p10,198,117,0),v10,fine,tool0;\
SetDO DO10_1, 1;\
MoveL Offs(p10,245,117,0),v30,fine,tool0;\
SetDO DO10_1, 0;\
MoveL Offs(p10,255,117,0),v10,fine,tool0;\
SetDO DO10_1, 1;\
MoveL Offs(p10,262,117,0),v30,fine,tool0;\
SetDO DO10_1, 0;\
MoveL Offs(p10,280,117,0),v10,fine,tool0;\
SetDO DO10_1, 1;\
MoveL Offs(p10,301,117,0),v30,fine,tool0;\
SetDO DO10_1, 0;\
MoveL Offs(p10,322,117,0),v10,fine,tool0;\
SetDO DO10_1, 1;\
MoveL Offs(p10,333,117,0),v30,fine,tool0;\
SetDO DO10_1, 0;\
MoveL Offs(p10,351,117,0),v10,fine,tool0;\
SetDO DO10_1, 1;\
MoveL Offs(p10,372,117,0),v30,fine,tool0;\
SetDO DO10_1, 0;\
MoveL Offs(p10,393,117,0),v10,fine,tool0;\
SetDO DO10_1, 1;\
MoveL Offs(p10,401,117,0),v30,fine,tool0;\
SetDO DO10_1, 0;\
MoveL Offs(p10,419,117,0),v10,fine,tool0;\
SetDO DO10_1, 1;\
MoveL Offs(p10,439,117,0),v30,fine,tool0;\
SetDO DO10_1, 0;\
MoveL Offs(p10,449,117,0),v10,fine,tool0;\
SetDO DO10_1, 1;\
MoveL Offs(p10,452,117,0),v30,fine,tool0;\
SetDO DO10_1, 0;\
MoveL Offs(p10,461,117,0),v10,fine,tool0;\
SetDO DO10_1, 1;\
MoveL Offs(p10,464,117,0),v30,fine,tool0;\
SetDO DO10_1, 0;\
MoveL Offs(p10,474,117,0),v10,fine,tool0;\
SetDO DO10_1, 1;\
MoveL Offs(p10,74,118,0),v30,fine,tool0;\
SetDO DO10_1, 0;\
MoveL Offs(p10,78,118,0),v10,fine,tool0;\
SetDO DO10_1, 1;\
MoveL Offs(p10,131,118,0),v30,fine,tool0;\
SetDO DO10_1, 0;\
MoveL Offs(p10,135,118,0),v10,fine,tool0;\
SetDO DO10_1, 1;\
MoveL Offs(p10,158,118,0),v30,fine,tool0;\
SetDO DO10_1, 0;\
MoveL Offs(p10,163,118,0),v10,fine,tool0;\
SetDO DO10_1, 1;\
MoveL Offs(p10,193,118,0),v30,fine,tool0;\
SetDO DO10_1, 0;\
MoveL Offs(p10,198,118,0),v10,fine,tool0;\
SetDO DO10_1, 1;\
MoveL Offs(p10,245,118,0),v30,fine,tool0;\
SetDO DO10_1, 0;\
MoveL Offs(p10,255,118,0),v10,fine,tool0;\
SetDO DO10_1, 1;\
MoveL Offs(p10,263,118,0),v30,fine,tool0;\
SetDO DO10_1, 0;\
MoveL Offs(p10,279,118,0),v10,fine,tool0;\
SetDO DO10_1, 1;\
MoveL Offs(p10,302,118,0),v30,fine,tool0;\
SetDO DO10_1, 0;\
MoveL Offs(p10,321,118,0),v10,fine,tool0;\
SetDO DO10_1, 1;\
MoveL Offs(p10,334,118,0),v30,fine,tool0;\
SetDO DO10_1, 0;\
MoveL Offs(p10,350,118,0),v10,fine,tool0;\
SetDO DO10_1, 1;\
MoveL Offs(p10,373,118,0),v30,fine,tool0;\
SetDO DO10_1, 0;\
MoveL Offs(p10,392,118,0),v10,fine,tool0;\
SetDO DO10_1, 1;\
MoveL Offs(p10,402,118,0),v30,fine,tool0;\
SetDO DO10_1, 0;\
MoveL Offs(p10,419,118,0),v10,fine,tool0;\
SetDO DO10_1, 1;\
MoveL Offs(p10,439,118,0),v30,fine,tool0;\
SetDO DO10_1, 0;\
MoveL Offs(p10,449,118,0),v10,fine,tool0;\
SetDO DO10_1, 1;\
MoveL Offs(p10,452,118,0),v30,fine,tool0;\
SetDO DO10_1, 0;\
MoveL Offs(p10,461,118,0),v10,fine,tool0;\
SetDO DO10_1, 1;\
MoveL Offs(p10,464,118,0),v30,fine,tool0;\
SetDO DO10_1, 0;\
MoveL Offs(p10,474,118,0),v10,fine,tool0;\
SetDO DO10_1, 1;\
MoveL Offs(p10,74,119,0),v30,fine,tool0;\
SetDO DO10_1, 0;\
MoveL Offs(p10,78,119,0),v10,fine,tool0;\
SetDO DO10_1, 1;\
MoveL Offs(p10,131,119,0),v30,fine,tool0;\
SetDO DO10_1, 0;\
MoveL Offs(p10,135,119,0),v10,fine,tool0;\
SetDO DO10_1, 1;\
MoveL Offs(p10,158,119,0),v30,fine,tool0;\
SetDO DO10_1, 0;\
MoveL Offs(p10,163,119,0),v10,fine,tool0;\
SetDO DO10_1, 1;\
MoveL Offs(p10,193,119,0),v30,fine,tool0;\
SetDO DO10_1, 0;\
MoveL Offs(p10,198,119,0),v10,fine,tool0;\
SetDO DO10_1, 1;\
MoveL Offs(p10,244,119,0),v30,fine,tool0;\
SetDO DO10_1, 0;\
MoveL Offs(p10,254,119,0),v10,fine,tool0;\
SetDO DO10_1, 1;\
MoveL Offs(p10,264,119,0),v30,fine,tool0;\
SetDO DO10_1, 0;\
MoveL Offs(p10,278,119,0),v10,fine,tool0;\
SetDO DO10_1, 1;\
MoveL Offs(p10,303,119,0),v30,fine,tool0;\
SetDO DO10_1, 0;\
MoveL Offs(p10,319,119,0),v10,fine,tool0;\
SetDO DO10_1, 1;\
MoveL Offs(p10,335,119,0),v30,fine,tool0;\
SetDO DO10_1, 0;\
MoveL Offs(p10,349,119,0),v10,fine,tool0;\
SetDO DO10_1, 1;\
MoveL Offs(p10,374,119,0),v30,fine,tool0;\
SetDO DO10_1, 0;\
MoveL Offs(p10,390,119,0),v10,fine,tool0;\
SetDO DO10_1, 1;\
MoveL Offs(p10,402,119,0),v30,fine,tool0;\
SetDO DO10_1, 0;\
MoveL Offs(p10,420,119,0),v10,fine,tool0;\
SetDO DO10_1, 1;\
MoveL Offs(p10,438,119,0),v30,fine,tool0;\
SetDO DO10_1, 0;\
MoveL Offs(p10,448,119,0),v10,fine,tool0;\
SetDO DO10_1, 1;\
MoveL Offs(p10,452,119,0),v30,fine,tool0;\
SetDO DO10_1, 0;\
MoveL Offs(p10,461,119,0),v10,fine,tool0;\
SetDO DO10_1, 1;\
MoveL Offs(p10,465,119,0),v30,fine,tool0;\
SetDO DO10_1, 0;\
MoveL Offs(p10,475,119,0),v10,fine,tool0;\
SetDO DO10_1, 1;\
MoveL Offs(p10,74,120,0),v30,fine,tool0;\
SetDO DO10_1, 0;\
MoveL Offs(p10,78,120,0),v10,fine,tool0;\
SetDO DO10_1, 1;\
MoveL Offs(p10,131,120,0),v30,fine,tool0;\
SetDO DO10_1, 0;\
MoveL Offs(p10,135,120,0),v10,fine,tool0;\
SetDO DO10_1, 1;\
MoveL Offs(p10,158,120,0),v30,fine,tool0;\
SetDO DO10_1, 0;\
MoveL Offs(p10,163,120,0),v10,fine,tool0;\
SetDO DO10_1, 1;\
MoveL Offs(p10,192,120,0),v30,fine,tool0;\
SetDO DO10_1, 0;\
MoveL Offs(p10,198,120,0),v10,fine,tool0;\
SetDO DO10_1, 1;\
MoveL Offs(p10,244,120,0),v30,fine,tool0;\
SetDO DO10_1, 0;\
MoveL Offs(p10,253,120,0),v10,fine,tool0;\
SetDO DO10_1, 1;\
MoveL Offs(p10,265,120,0),v30,fine,tool0;\
SetDO DO10_1, 0;\
MoveL Offs(p10,277,120,0),v10,fine,tool0;\
SetDO DO10_1, 1;\
MoveL Offs(p10,303,120,0),v30,fine,tool0;\
SetDO DO10_1, 0;\
MoveL Offs(p10,317,120,0),v10,fine,tool0;\
SetDO DO10_1, 1;\
MoveL Offs(p10,336,120,0),v30,fine,tool0;\
SetDO DO10_1, 0;\
MoveL Offs(p10,348,120,0),v10,fine,tool0;\
SetDO DO10_1, 1;\
MoveL Offs(p10,374,120,0),v30,fine,tool0;\
SetDO DO10_1, 0;\
MoveL Offs(p10,388,120,0),v10,fine,tool0;\
SetDO DO10_1, 1;\
MoveL Offs(p10,402,120,0),v30,fine,tool0;\
SetDO DO10_1, 0;\
MoveL Offs(p10,420,120,0),v10,fine,tool0;\
SetDO DO10_1, 1;\
MoveL Offs(p10,437,120,0),v30,fine,tool0;\
SetDO DO10_1, 0;\
MoveL Offs(p10,447,120,0),v10,fine,tool0;\
SetDO DO10_1, 1;\
MoveL Offs(p10,452,120,0),v30,fine,tool0;\
SetDO DO10_1, 0;\
MoveL Offs(p10,461,120,0),v10,fine,tool0;\
SetDO DO10_1, 1;\
MoveL Offs(p10,466,120,0),v30,fine,tool0;\
SetDO DO10_1, 0;\
MoveL Offs(p10,476,120,0),v10,fine,tool0;\
SetDO DO10_1, 1;\
MoveL Offs(p10,74,121,0),v30,fine,tool0;\
SetDO DO10_1, 0;\
MoveL Offs(p10,77,121,0),v10,fine,tool0;\
SetDO DO10_1, 1;\
MoveL Offs(p10,131,121,0),v30,fine,tool0;\
SetDO DO10_1, 0;\
MoveL Offs(p10,135,121,0),v10,fine,tool0;\
SetDO DO10_1, 1;\
MoveL Offs(p10,158,121,0),v30,fine,tool0;\
SetDO DO10_1, 0;\
MoveL Offs(p10,164,121,0),v10,fine,tool0;\
SetDO DO10_1, 1;\
MoveL Offs(p10,192,121,0),v30,fine,tool0;\
SetDO DO10_1, 0;\
MoveL Offs(p10,198,121,0),v10,fine,tool0;\
SetDO DO10_1, 1;\
MoveL Offs(p10,243,121,0),v30,fine,tool0;\
SetDO DO10_1, 0;\
MoveL Offs(p10,253,121,0),v10,fine,tool0;\
SetDO DO10_1, 1;\
MoveL Offs(p10,266,121,0),v30,fine,tool0;\
SetDO DO10_1, 0;\
MoveL Offs(p10,276,121,0),v10,fine,tool0;\
SetDO DO10_1, 1;\
MoveL Offs(p10,304,121,0),v30,fine,tool0;\
SetDO DO10_1, 0;\
MoveL Offs(p10,315,121,0),v10,fine,tool0;\
SetDO DO10_1, 1;\
MoveL Offs(p10,337,121,0),v30,fine,tool0;\
SetDO DO10_1, 0;\
MoveL Offs(p10,347,121,0),v10,fine,tool0;\
SetDO DO10_1, 1;\
MoveL Offs(p10,375,121,0),v30,fine,tool0;\
SetDO DO10_1, 0;\
MoveL Offs(p10,386,121,0),v10,fine,tool0;\
SetDO DO10_1, 1;\
MoveL Offs(p10,402,121,0),v30,fine,tool0;\
SetDO DO10_1, 0;\
MoveL Offs(p10,420,121,0),v10,fine,tool0;\
SetDO DO10_1, 1;\
MoveL Offs(p10,437,121,0),v30,fine,tool0;\
SetDO DO10_1, 0;\
MoveL Offs(p10,447,121,0),v10,fine,tool0;\
SetDO DO10_1, 1;\
MoveL Offs(p10,452,121,0),v30,fine,tool0;\
SetDO DO10_1, 0;\
MoveL Offs(p10,461,121,0),v10,fine,tool0;\
SetDO DO10_1, 1;\
MoveL Offs(p10,466,121,0),v30,fine,tool0;\
SetDO DO10_1, 0;\
MoveL Offs(p10,476,121,0),v10,fine,tool0;\
SetDO DO10_1, 1;\
MoveL Offs(p10,74,122,0),v30,fine,tool0;\
SetDO DO10_1, 0;\
MoveL Offs(p10,77,122,0),v10,fine,tool0;\
SetDO DO10_1, 1;\
MoveL Offs(p10,131,122,0),v30,fine,tool0;\
SetDO DO10_1, 0;\
MoveL Offs(p10,135,122,0),v10,fine,tool0;\
SetDO DO10_1, 1;\
MoveL Offs(p10,158,122,0),v30,fine,tool0;\
SetDO DO10_1, 0;\
MoveL Offs(p10,166,122,0),v10,fine,tool0;\
SetDO DO10_1, 1;\
MoveL Offs(p10,189,122,0),v30,fine,tool0;\
SetDO DO10_1, 0;\
MoveL Offs(p10,197,122,0),v10,fine,tool0;\
SetDO DO10_1, 1;\
MoveL Offs(p10,242,122,0),v30,fine,tool0;\
SetDO DO10_1, 0;\
MoveL Offs(p10,252,122,0),v10,fine,tool0;\
SetDO DO10_1, 1;\
MoveL Offs(p10,267,122,0),v30,fine,tool0;\
SetDO DO10_1, 0;\
MoveL Offs(p10,275,122,0),v10,fine,tool0;\
SetDO DO10_1, 1;\
MoveL Offs(p10,304,122,0),v30,fine,tool0;\
SetDO DO10_1, 0;\
MoveL Offs(p10,314,122,0),v10,fine,tool0;\
SetDO DO10_1, 1;\
MoveL Offs(p10,338,122,0),v30,fine,tool0;\
SetDO DO10_1, 0;\
MoveL Offs(p10,346,122,0),v10,fine,tool0;\
SetDO DO10_1, 1;\
MoveL Offs(p10,375,122,0),v30,fine,tool0;\
SetDO DO10_1, 0;\
MoveL Offs(p10,385,122,0),v10,fine,tool0;\
SetDO DO10_1, 1;\
MoveL Offs(p10,403,122,0),v30,fine,tool0;\
SetDO DO10_1, 0;\
MoveL Offs(p10,421,122,0),v10,fine,tool0;\
SetDO DO10_1, 1;\
MoveL Offs(p10,436,122,0),v30,fine,tool0;\
SetDO DO10_1, 0;\
MoveL Offs(p10,446,122,0),v10,fine,tool0;\
SetDO DO10_1, 1;\
MoveL Offs(p10,452,122,0),v30,fine,tool0;\
SetDO DO10_1, 0;\
MoveL Offs(p10,461,122,0),v10,fine,tool0;\
SetDO DO10_1, 1;\
MoveL Offs(p10,467,122,0),v30,fine,tool0;\
SetDO DO10_1, 0;\
MoveL Offs(p10,477,122,0),v10,fine,tool0;\
SetDO DO10_1, 1;\
MoveL Offs(p10,73,123,0),v30,fine,tool0;\
SetDO DO10_1, 0;\
MoveL Offs(p10,77,123,0),v10,fine,tool0;\
SetDO DO10_1, 1;\
MoveL Offs(p10,131,123,0),v30,fine,tool0;\
SetDO DO10_1, 0;\
MoveL Offs(p10,135,123,0),v10,fine,tool0;\
SetDO DO10_1, 1;\
MoveL Offs(p10,159,123,0),v30,fine,tool0;\
SetDO DO10_1, 0;\
MoveL Offs(p10,197,123,0),v10,fine,tool0;\
SetDO DO10_1, 1;\
MoveL Offs(p10,242,123,0),v30,fine,tool0;\
SetDO DO10_1, 0;\
MoveL Offs(p10,252,123,0),v10,fine,tool0;\
SetDO DO10_1, 1;\
MoveL Offs(p10,268,123,0),v30,fine,tool0;\
SetDO DO10_1, 0;\
MoveL Offs(p10,274,123,0),v10,fine,tool0;\
SetDO DO10_1, 1;\
MoveL Offs(p10,305,123,0),v30,fine,tool0;\
SetDO DO10_1, 0;\
MoveL Offs(p10,312,123,0),v10,fine,tool0;\
SetDO DO10_1, 1;\
MoveL Offs(p10,339,123,0),v30,fine,tool0;\
SetDO DO10_1, 0;\
MoveL Offs(p10,345,123,0),v10,fine,tool0;\
SetDO DO10_1, 1;\
MoveL Offs(p10,376,123,0),v30,fine,tool0;\
SetDO DO10_1, 0;\
MoveL Offs(p10,383,123,0),v10,fine,tool0;\
SetDO DO10_1, 1;\
MoveL Offs(p10,403,123,0),v30,fine,tool0;\
SetDO DO10_1, 0;\
MoveL Offs(p10,421,123,0),v10,fine,tool0;\
SetDO DO10_1, 1;\
MoveL Offs(p10,436,123,0),v30,fine,tool0;\
SetDO DO10_1, 0;\
MoveL Offs(p10,446,123,0),v10,fine,tool0;\
SetDO DO10_1, 1;\
MoveL Offs(p10,452,123,0),v30,fine,tool0;\
SetDO DO10_1, 0;\
MoveL Offs(p10,461,123,0),v10,fine,tool0;\
SetDO DO10_1, 1;\
MoveL Offs(p10,467,123,0),v30,fine,tool0;\
SetDO DO10_1, 0;\
MoveL Offs(p10,477,123,0),v10,fine,tool0;\
SetDO DO10_1, 1;\
MoveL Offs(p10,73,124,0),v30,fine,tool0;\
SetDO DO10_1, 0;\
MoveL Offs(p10,77,124,0),v10,fine,tool0;\
SetDO DO10_1, 1;\
MoveL Offs(p10,131,124,0),v30,fine,tool0;\
SetDO DO10_1, 0;\
MoveL Offs(p10,135,124,0),v10,fine,tool0;\
SetDO DO10_1, 1;\
MoveL Offs(p10,159,124,0),v30,fine,tool0;\
SetDO DO10_1, 0;\
MoveL Offs(p10,196,124,0),v10,fine,tool0;\
SetDO DO10_1, 1;\
MoveL Offs(p10,241,124,0),v30,fine,tool0;\
SetDO DO10_1, 0;\
MoveL Offs(p10,251,124,0),v10,fine,tool0;\
SetDO DO10_1, 1;\
MoveL Offs(p10,269,124,0),v30,fine,tool0;\
SetDO DO10_1, 0;\
MoveL Offs(p10,273,124,0),v10,fine,tool0;\
SetDO DO10_1, 1;\
MoveL Offs(p10,305,124,0),v30,fine,tool0;\
SetDO DO10_1, 0;\
MoveL Offs(p10,310,124,0),v10,fine,tool0;\
SetDO DO10_1, 1;\
MoveL Offs(p10,340,124,0),v30,fine,tool0;\
SetDO DO10_1, 0;\
MoveL Offs(p10,344,124,0),v10,fine,tool0;\
SetDO DO10_1, 1;\
MoveL Offs(p10,376,124,0),v30,fine,tool0;\
SetDO DO10_1, 0;\
MoveL Offs(p10,381,124,0),v10,fine,tool0;\
SetDO DO10_1, 1;\
MoveL Offs(p10,403,124,0),v30,fine,tool0;\
SetDO DO10_1, 0;\
MoveL Offs(p10,421,124,0),v10,fine,tool0;\
SetDO DO10_1, 1;\
MoveL Offs(p10,435,124,0),v30,fine,tool0;\
SetDO DO10_1, 0;\
MoveL Offs(p10,445,124,0),v10,fine,tool0;\
SetDO DO10_1, 1;\
MoveL Offs(p10,452,124,0),v30,fine,tool0;\
SetDO DO10_1, 0;\
MoveL Offs(p10,461,124,0),v10,fine,tool0;\
SetDO DO10_1, 1;\
MoveL Offs(p10,468,124,0),v30,fine,tool0;\
SetDO DO10_1, 0;\
MoveL Offs(p10,478,124,0),v10,fine,tool0;\
SetDO DO10_1, 1;\
MoveL Offs(p10,73,125,0),v30,fine,tool0;\
SetDO DO10_1, 0;\
MoveL Offs(p10,77,125,0),v10,fine,tool0;\
SetDO DO10_1, 1;\
MoveL Offs(p10,131,125,0),v30,fine,tool0;\
SetDO DO10_1, 0;\
MoveL Offs(p10,135,125,0),v10,fine,tool0;\
SetDO DO10_1, 1;\
MoveL Offs(p10,160,125,0),v30,fine,tool0;\
SetDO DO10_1, 0;\
MoveL Offs(p10,196,125,0),v10,fine,tool0;\
SetDO DO10_1, 1;\
MoveL Offs(p10,241,125,0),v30,fine,tool0;\
SetDO DO10_1, 0;\
MoveL Offs(p10,251,125,0),v10,fine,tool0;\
SetDO DO10_1, 1;\
MoveL Offs(p10,270,125,0),v30,fine,tool0;\
SetDO DO10_1, 0;\
MoveL Offs(p10,272,125,0),v10,fine,tool0;\
SetDO DO10_1, 1;\
MoveL Offs(p10,306,125,0),v30,fine,tool0;\
SetDO DO10_1, 0;\
MoveL Offs(p10,308,125,0),v10,fine,tool0;\
SetDO DO10_1, 1;\
MoveL Offs(p10,341,125,0),v30,fine,tool0;\
SetDO DO10_1, 0;\
MoveL Offs(p10,343,125,0),v10,fine,tool0;\
SetDO DO10_1, 1;\
MoveL Offs(p10,377,125,0),v30,fine,tool0;\
SetDO DO10_1, 0;\
MoveL Offs(p10,379,125,0),v10,fine,tool0;\
SetDO DO10_1, 1;\
MoveL Offs(p10,403,125,0),v30,fine,tool0;\
SetDO DO10_1, 0;\
MoveL Offs(p10,421,125,0),v10,fine,tool0;\
SetDO DO10_1, 1;\
MoveL Offs(p10,435,125,0),v30,fine,tool0;\
SetDO DO10_1, 0;\
MoveL Offs(p10,444,125,0),v10,fine,tool0;\
SetDO DO10_1, 1;\
MoveL Offs(p10,452,125,0),v30,fine,tool0;\
SetDO DO10_1, 0;\
MoveL Offs(p10,461,125,0),v10,fine,tool0;\
SetDO DO10_1, 1;\
MoveL Offs(p10,468,125,0),v30,fine,tool0;\
SetDO DO10_1, 0;\
MoveL Offs(p10,478,125,0),v10,fine,tool0;\
SetDO DO10_1, 1;\
MoveL Offs(p10,74,126,0),v30,fine,tool0;\
SetDO DO10_1, 0;\
MoveL Offs(p10,77,126,0),v10,fine,tool0;\
SetDO DO10_1, 1;\
MoveL Offs(p10,131,126,0),v30,fine,tool0;\
SetDO DO10_1, 0;\
MoveL Offs(p10,135,126,0),v10,fine,tool0;\
SetDO DO10_1, 1;\
MoveL Offs(p10,161,126,0),v30,fine,tool0;\
SetDO DO10_1, 0;\
MoveL Offs(p10,195,126,0),v10,fine,tool0;\
SetDO DO10_1, 1;\
MoveL Offs(p10,240,126,0),v30,fine,tool0;\
SetDO DO10_1, 0;\
MoveL Offs(p10,250,126,0),v10,fine,tool0;\
SetDO DO10_1, 1;\
MoveL Offs(p10,271,126,0),v30,fine,tool0;\
SetDO DO10_1, 0;\
MoveL Offs(p10,271,126,0),v10,fine,tool0;\
SetDO DO10_1, 1;\
MoveL Offs(p10,306,126,0),v30,fine,tool0;\
SetDO DO10_1, 0;\
MoveL Offs(p10,307,126,0),v10,fine,tool0;\
SetDO DO10_1, 1;\
MoveL Offs(p10,342,126,0),v30,fine,tool0;\
SetDO DO10_1, 0;\
MoveL Offs(p10,342,126,0),v10,fine,tool0;\
SetDO DO10_1, 1;\
MoveL Offs(p10,378,126,0),v30,fine,tool0;\
SetDO DO10_1, 0;\
MoveL Offs(p10,378,126,0),v10,fine,tool0;\
SetDO DO10_1, 1;\
MoveL Offs(p10,404,126,0),v30,fine,tool0;\
SetDO DO10_1, 0;\
MoveL Offs(p10,422,126,0),v10,fine,tool0;\
SetDO DO10_1, 1;\
MoveL Offs(p10,434,126,0),v30,fine,tool0;\
SetDO DO10_1, 0;\
MoveL Offs(p10,444,126,0),v10,fine,tool0;\
SetDO DO10_1, 1;\
MoveL Offs(p10,452,126,0),v30,fine,tool0;\
SetDO DO10_1, 0;\
MoveL Offs(p10,461,126,0),v10,fine,tool0;\
SetDO DO10_1, 1;\
MoveL Offs(p10,469,126,0),v30,fine,tool0;\
SetDO DO10_1, 0;\
MoveL Offs(p10,479,126,0),v10,fine,tool0;\
SetDO DO10_1, 1;\
MoveL Offs(p10,70,127,0),v30,fine,tool0;\
SetDO DO10_1, 0;\
MoveL Offs(p10,81,127,0),v10,fine,tool0;\
SetDO DO10_1, 1;\
MoveL Offs(p10,131,127,0),v30,fine,tool0;\
SetDO DO10_1, 0;\
MoveL Offs(p10,135,127,0),v10,fine,tool0;\
SetDO DO10_1, 1;\
MoveL Offs(p10,162,127,0),v30,fine,tool0;\
SetDO DO10_1, 0;\
MoveL Offs(p10,194,127,0),v10,fine,tool0;\
SetDO DO10_1, 1;\
MoveL Offs(p10,239,127,0),v30,fine,tool0;\
SetDO DO10_1, 0;\
MoveL Offs(p10,249,127,0),v10,fine,tool0;\
SetDO DO10_1, 1;\
MoveL Offs(p10,270,127,0),v30,fine,tool0;\
SetDO DO10_1, 0;\
MoveL Offs(p10,271,127,0),v10,fine,tool0;\
SetDO DO10_1, 1;\
MoveL Offs(p10,303,127,0),v30,fine,tool0;\
SetDO DO10_1, 0;\
MoveL Offs(p10,306,127,0),v10,fine,tool0;\
SetDO DO10_1, 1;\
MoveL Offs(p10,404,127,0),v30,fine,tool0;\
SetDO DO10_1, 0;\
MoveL Offs(p10,422,127,0),v10,fine,tool0;\
SetDO DO10_1, 1;\
MoveL Offs(p10,433,127,0),v30,fine,tool0;\
SetDO DO10_1, 0;\
MoveL Offs(p10,443,127,0),v10,fine,tool0;\
SetDO DO10_1, 1;\
MoveL Offs(p10,452,127,0),v30,fine,tool0;\
SetDO DO10_1, 0;\
MoveL Offs(p10,461,127,0),v10,fine,tool0;\
SetDO DO10_1, 1;\
MoveL Offs(p10,470,127,0),v30,fine,tool0;\
SetDO DO10_1, 0;\
MoveL Offs(p10,480,127,0),v10,fine,tool0;\
SetDO DO10_1, 1;\
MoveL Offs(p10,66,128,0),v30,fine,tool0;\
SetDO DO10_1, 0;\
MoveL Offs(p10,84,128,0),v10,fine,tool0;\
SetDO DO10_1, 1;\
MoveL Offs(p10,131,128,0),v30,fine,tool0;\
SetDO DO10_1, 0;\
MoveL Offs(p10,135,128,0),v10,fine,tool0;\
SetDO DO10_1, 1;\
MoveL Offs(p10,164,128,0),v30,fine,tool0;\
SetDO DO10_1, 0;\
MoveL Offs(p10,192,128,0),v10,fine,tool0;\
SetDO DO10_1, 1;\
MoveL Offs(p10,239,128,0),v30,fine,tool0;\
SetDO DO10_1, 0;\
MoveL Offs(p10,249,128,0),v10,fine,tool0;\
SetDO DO10_1, 1;\
MoveL Offs(p10,268,128,0),v30,fine,tool0;\
SetDO DO10_1, 0;\
MoveL Offs(p10,271,128,0),v10,fine,tool0;\
SetDO DO10_1, 1;\
MoveL Offs(p10,299,128,0),v30,fine,tool0;\
SetDO DO10_1, 0;\
MoveL Offs(p10,306,128,0),v10,fine,tool0;\
SetDO DO10_1, 1;\
MoveL Offs(p10,404,128,0),v30,fine,tool0;\
SetDO DO10_1, 0;\
MoveL Offs(p10,422,128,0),v10,fine,tool0;\
SetDO DO10_1, 1;\
MoveL Offs(p10,433,128,0),v30,fine,tool0;\
SetDO DO10_1, 0;\
MoveL Offs(p10,443,128,0),v10,fine,tool0;\
SetDO DO10_1, 1;\
MoveL Offs(p10,452,128,0),v30,fine,tool0;\
SetDO DO10_1, 0;\
MoveL Offs(p10,461,128,0),v10,fine,tool0;\
SetDO DO10_1, 1;\
MoveL Offs(p10,470,128,0),v30,fine,tool0;\
SetDO DO10_1, 0;\
MoveL Offs(p10,480,128,0),v10,fine,tool0;\
SetDO DO10_1, 1;\
MoveL Offs(p10,64,129,0),v30,fine,tool0;\
SetDO DO10_1, 0;\
MoveL Offs(p10,87,129,0),v10,fine,tool0;\
SetDO DO10_1, 1;\
MoveL Offs(p10,131,129,0),v30,fine,tool0;\
SetDO DO10_1, 0;\
MoveL Offs(p10,135,129,0),v10,fine,tool0;\
SetDO DO10_1, 1;\
MoveL Offs(p10,166,129,0),v30,fine,tool0;\
SetDO DO10_1, 0;\
MoveL Offs(p10,189,129,0),v10,fine,tool0;\
SetDO DO10_1, 1;\
MoveL Offs(p10,238,129,0),v30,fine,tool0;\
SetDO DO10_1, 0;\
MoveL Offs(p10,248,129,0),v10,fine,tool0;\
SetDO DO10_1, 1;\
MoveL Offs(p10,266,129,0),v30,fine,tool0;\
SetDO DO10_1, 0;\
MoveL Offs(p10,272,129,0),v10,fine,tool0;\
SetDO DO10_1, 1;\
MoveL Offs(p10,296,129,0),v30,fine,tool0;\
SetDO DO10_1, 0;\
MoveL Offs(p10,306,129,0),v10,fine,tool0;\
SetDO DO10_1, 1;\
MoveL Offs(p10,404,129,0),v30,fine,tool0;\
SetDO DO10_1, 0;\
MoveL Offs(p10,422,129,0),v10,fine,tool0;\
SetDO DO10_1, 1;\
MoveL Offs(p10,432,129,0),v30,fine,tool0;\
SetDO DO10_1, 0;\
MoveL Offs(p10,442,129,0),v10,fine,tool0;\
SetDO DO10_1, 1;\
MoveL Offs(p10,452,129,0),v30,fine,tool0;\
SetDO DO10_1, 0;\
MoveL Offs(p10,461,129,0),v10,fine,tool0;\
SetDO DO10_1, 1;\
MoveL Offs(p10,471,129,0),v30,fine,tool0;\
SetDO DO10_1, 0;\
MoveL Offs(p10,481,129,0),v10,fine,tool0;\
SetDO DO10_1, 1;\
MoveL Offs(p10,62,130,0),v30,fine,tool0;\
SetDO DO10_1, 0;\
MoveL Offs(p10,89,130,0),v10,fine,tool0;\
SetDO DO10_1, 1;\
MoveL Offs(p10,131,130,0),v30,fine,tool0;\
SetDO DO10_1, 0;\
MoveL Offs(p10,135,130,0),v10,fine,tool0;\
SetDO DO10_1, 1;\
MoveL Offs(p10,238,130,0),v30,fine,tool0;\
SetDO DO10_1, 0;\
MoveL Offs(p10,248,130,0),v10,fine,tool0;\
SetDO DO10_1, 1;\
MoveL Offs(p10,265,130,0),v30,fine,tool0;\
SetDO DO10_1, 0;\
MoveL Offs(p10,272,130,0),v10,fine,tool0;\
SetDO DO10_1, 1;\
MoveL Offs(p10,292,130,0),v30,fine,tool0;\
SetDO DO10_1, 0;\
MoveL Offs(p10,307,130,0),v10,fine,tool0;\
SetDO DO10_1, 1;\
MoveL Offs(p10,405,130,0),v30,fine,tool0;\
SetDO DO10_1, 0;\
MoveL Offs(p10,423,130,0),v10,fine,tool0;\
SetDO DO10_1, 1;\
MoveL Offs(p10,432,130,0),v30,fine,tool0;\
SetDO DO10_1, 0;\
MoveL Offs(p10,442,130,0),v10,fine,tool0;\
SetDO DO10_1, 1;\
MoveL Offs(p10,452,130,0),v30,fine,tool0;\
SetDO DO10_1, 0;\
MoveL Offs(p10,461,130,0),v10,fine,tool0;\
SetDO DO10_1, 1;\
MoveL Offs(p10,471,130,0),v30,fine,tool0;\
SetDO DO10_1, 0;\
MoveL Offs(p10,481,130,0),v10,fine,tool0;\
SetDO DO10_1, 1;\
MoveL Offs(p10,60,131,0),v30,fine,tool0;\
SetDO DO10_1, 0;\
MoveL Offs(p10,91,131,0),v10,fine,tool0;\
SetDO DO10_1, 1;\
MoveL Offs(p10,131,131,0),v30,fine,tool0;\
SetDO DO10_1, 0;\
MoveL Offs(p10,134,131,0),v10,fine,tool0;\
SetDO DO10_1, 1;\
MoveL Offs(p10,237,131,0),v30,fine,tool0;\
SetDO DO10_1, 0;\
MoveL Offs(p10,247,131,0),v10,fine,tool0;\
SetDO DO10_1, 1;\
MoveL Offs(p10,263,131,0),v30,fine,tool0;\
SetDO DO10_1, 0;\
MoveL Offs(p10,273,131,0),v10,fine,tool0;\
SetDO DO10_1, 1;\
MoveL Offs(p10,288,131,0),v30,fine,tool0;\
SetDO DO10_1, 0;\
MoveL Offs(p10,307,131,0),v10,fine,tool0;\
SetDO DO10_1, 1;\
MoveL Offs(p10,405,131,0),v30,fine,tool0;\
SetDO DO10_1, 0;\
MoveL Offs(p10,423,131,0),v10,fine,tool0;\
SetDO DO10_1, 1;\
MoveL Offs(p10,431,131,0),v30,fine,tool0;\
SetDO DO10_1, 0;\
MoveL Offs(p10,441,131,0),v10,fine,tool0;\
SetDO DO10_1, 1;\
MoveL Offs(p10,452,131,0),v30,fine,tool0;\
SetDO DO10_1, 0;\
MoveL Offs(p10,461,131,0),v10,fine,tool0;\
SetDO DO10_1, 1;\
MoveL Offs(p10,472,131,0),v30,fine,tool0;\
SetDO DO10_1, 0;\
MoveL Offs(p10,482,131,0),v10,fine,tool0;\
SetDO DO10_1, 1;\
MoveL Offs(p10,58,132,0),v30,fine,tool0;\
SetDO DO10_1, 0;\
MoveL Offs(p10,92,132,0),v10,fine,tool0;\
SetDO DO10_1, 1;\
MoveL Offs(p10,130,132,0),v30,fine,tool0;\
SetDO DO10_1, 0;\
MoveL Offs(p10,134,132,0),v10,fine,tool0;\
SetDO DO10_1, 1;\
MoveL Offs(p10,237,132,0),v30,fine,tool0;\
SetDO DO10_1, 0;\
MoveL Offs(p10,247,132,0),v10,fine,tool0;\
SetDO DO10_1, 1;\
MoveL Offs(p10,261,132,0),v30,fine,tool0;\
SetDO DO10_1, 0;\
MoveL Offs(p10,274,132,0),v10,fine,tool0;\
SetDO DO10_1, 1;\
MoveL Offs(p10,285,132,0),v30,fine,tool0;\
SetDO DO10_1, 0;\
MoveL Offs(p10,307,132,0),v10,fine,tool0;\
SetDO DO10_1, 1;\
MoveL Offs(p10,405,132,0),v30,fine,tool0;\
SetDO DO10_1, 0;\
MoveL Offs(p10,423,132,0),v10,fine,tool0;\
SetDO DO10_1, 1;\
MoveL Offs(p10,431,132,0),v30,fine,tool0;\
SetDO DO10_1, 0;\
MoveL Offs(p10,440,132,0),v10,fine,tool0;\
SetDO DO10_1, 1;\
MoveL Offs(p10,452,132,0),v30,fine,tool0;\
SetDO DO10_1, 0;\
MoveL Offs(p10,461,132,0),v10,fine,tool0;\
SetDO DO10_1, 1;\
MoveL Offs(p10,473,132,0),v30,fine,tool0;\
SetDO DO10_1, 0;\
MoveL Offs(p10,482,132,0),v10,fine,tool0;\
SetDO DO10_1, 1;\
MoveL Offs(p10,57,133,0),v30,fine,tool0;\
SetDO DO10_1, 0;\
MoveL Offs(p10,68,133,0),v10,fine,tool0;\
SetDO DO10_1, 1;\
MoveL Offs(p10,75,133,0),v30,fine,tool0;\
SetDO DO10_1, 0;\
MoveL Offs(p10,79,133,0),v10,fine,tool0;\
SetDO DO10_1, 1;\
MoveL Offs(p10,82,133,0),v30,fine,tool0;\
SetDO DO10_1, 0;\
MoveL Offs(p10,94,133,0),v10,fine,tool0;\
SetDO DO10_1, 1;\
MoveL Offs(p10,130,133,0),v30,fine,tool0;\
SetDO DO10_1, 0;\
MoveL Offs(p10,134,133,0),v10,fine,tool0;\
SetDO DO10_1, 1;\
MoveL Offs(p10,236,133,0),v30,fine,tool0;\
SetDO DO10_1, 0;\
MoveL Offs(p10,246,133,0),v10,fine,tool0;\
SetDO DO10_1, 1;\
MoveL Offs(p10,259,133,0),v30,fine,tool0;\
SetDO DO10_1, 0;\
MoveL Offs(p10,274,133,0),v10,fine,tool0;\
SetDO DO10_1, 1;\
MoveL Offs(p10,281,133,0),v30,fine,tool0;\
SetDO DO10_1, 0;\
MoveL Offs(p10,307,133,0),v10,fine,tool0;\
SetDO DO10_1, 1;\
MoveL Offs(p10,406,133,0),v30,fine,tool0;\
SetDO DO10_1, 0;\
MoveL Offs(p10,424,133,0),v10,fine,tool0;\
SetDO DO10_1, 1;\
MoveL Offs(p10,430,133,0),v30,fine,tool0;\
SetDO DO10_1, 0;\
MoveL Offs(p10,440,133,0),v10,fine,tool0;\
SetDO DO10_1, 1;\
MoveL Offs(p10,452,133,0),v30,fine,tool0;\
SetDO DO10_1, 0;\
MoveL Offs(p10,461,133,0),v10,fine,tool0;\
SetDO DO10_1, 1;\
MoveL Offs(p10,473,133,0),v30,fine,tool0;\
SetDO DO10_1, 0;\
MoveL Offs(p10,483,133,0),v10,fine,tool0;\
SetDO DO10_1, 1;\
MoveL Offs(p10,56,134,0),v30,fine,tool0;\
SetDO DO10_1, 0;\
MoveL Offs(p10,65,134,0),v10,fine,tool0;\
SetDO DO10_1, 1;\
MoveL Offs(p10,75,134,0),v30,fine,tool0;\
SetDO DO10_1, 0;\
MoveL Offs(p10,79,134,0),v10,fine,tool0;\
SetDO DO10_1, 1;\
MoveL Offs(p10,86,134,0),v30,fine,tool0;\
SetDO DO10_1, 0;\
MoveL Offs(p10,95,134,0),v10,fine,tool0;\
SetDO DO10_1, 1;\
MoveL Offs(p10,129,134,0),v30,fine,tool0;\
SetDO DO10_1, 0;\
MoveL Offs(p10,134,134,0),v10,fine,tool0;\
SetDO DO10_1, 1;\
MoveL Offs(p10,235,134,0),v30,fine,tool0;\
SetDO DO10_1, 0;\
MoveL Offs(p10,245,134,0),v10,fine,tool0;\
SetDO DO10_1, 1;\
MoveL Offs(p10,258,134,0),v30,fine,tool0;\
SetDO DO10_1, 0;\
MoveL Offs(p10,308,134,0),v10,fine,tool0;\
SetDO DO10_1, 1;\
MoveL Offs(p10,406,134,0),v30,fine,tool0;\
SetDO DO10_1, 0;\
MoveL Offs(p10,424,134,0),v10,fine,tool0;\
SetDO DO10_1, 1;\
MoveL Offs(p10,429,134,0),v30,fine,tool0;\
SetDO DO10_1, 0;\
MoveL Offs(p10,439,134,0),v10,fine,tool0;\
SetDO DO10_1, 1;\
MoveL Offs(p10,452,134,0),v30,fine,tool0;\
SetDO DO10_1, 0;\
MoveL Offs(p10,461,134,0),v10,fine,tool0;\
SetDO DO10_1, 1;\
MoveL Offs(p10,474,134,0),v30,fine,tool0;\
SetDO DO10_1, 0;\
MoveL Offs(p10,484,134,0),v10,fine,tool0;\
SetDO DO10_1, 1;\
MoveL Offs(p10,55,135,0),v30,fine,tool0;\
SetDO DO10_1, 0;\
MoveL Offs(p10,63,135,0),v10,fine,tool0;\
SetDO DO10_1, 1;\
MoveL Offs(p10,75,135,0),v30,fine,tool0;\
SetDO DO10_1, 0;\
MoveL Offs(p10,80,135,0),v10,fine,tool0;\
SetDO DO10_1, 1;\
MoveL Offs(p10,88,135,0),v30,fine,tool0;\
SetDO DO10_1, 0;\
MoveL Offs(p10,96,135,0),v10,fine,tool0;\
SetDO DO10_1, 1;\
MoveL Offs(p10,129,135,0),v30,fine,tool0;\
SetDO DO10_1, 0;\
MoveL Offs(p10,133,135,0),v10,fine,tool0;\
SetDO DO10_1, 1;\
MoveL Offs(p10,235,135,0),v30,fine,tool0;\
SetDO DO10_1, 0;\
MoveL Offs(p10,245,135,0),v10,fine,tool0;\
SetDO DO10_1, 1;\
MoveL Offs(p10,256,135,0),v30,fine,tool0;\
SetDO DO10_1, 0;\
MoveL Offs(p10,308,135,0),v10,fine,tool0;\
SetDO DO10_1, 1;\
MoveL Offs(p10,406,135,0),v30,fine,tool0;\
SetDO DO10_1, 0;\
MoveL Offs(p10,424,135,0),v10,fine,tool0;\
SetDO DO10_1, 1;\
MoveL Offs(p10,429,135,0),v30,fine,tool0;\
SetDO DO10_1, 0;\
MoveL Offs(p10,439,135,0),v10,fine,tool0;\
SetDO DO10_1, 1;\
MoveL Offs(p10,452,135,0),v30,fine,tool0;\
SetDO DO10_1, 0;\
MoveL Offs(p10,461,135,0),v10,fine,tool0;\
SetDO DO10_1, 1;\
MoveL Offs(p10,474,135,0),v30,fine,tool0;\
SetDO DO10_1, 0;\
MoveL Offs(p10,484,135,0),v10,fine,tool0;\
SetDO DO10_1, 1;\
MoveL Offs(p10,54,136,0),v30,fine,tool0;\
SetDO DO10_1, 0;\
MoveL Offs(p10,61,136,0),v10,fine,tool0;\
SetDO DO10_1, 1;\
MoveL Offs(p10,76,136,0),v30,fine,tool0;\
SetDO DO10_1, 0;\
MoveL Offs(p10,80,136,0),v10,fine,tool0;\
SetDO DO10_1, 1;\
MoveL Offs(p10,90,136,0),v30,fine,tool0;\
SetDO DO10_1, 0;\
MoveL Offs(p10,97,136,0),v10,fine,tool0;\
SetDO DO10_1, 1;\
MoveL Offs(p10,129,136,0),v30,fine,tool0;\
SetDO DO10_1, 0;\
MoveL Offs(p10,133,136,0),v10,fine,tool0;\
SetDO DO10_1, 1;\
MoveL Offs(p10,234,136,0),v30,fine,tool0;\
SetDO DO10_1, 0;\
MoveL Offs(p10,244,136,0),v10,fine,tool0;\
SetDO DO10_1, 1;\
MoveL Offs(p10,254,136,0),v30,fine,tool0;\
SetDO DO10_1, 0;\
MoveL Offs(p10,273,136,0),v10,fine,tool0;\
SetDO DO10_1, 1;\
MoveL Offs(p10,277,136,0),v30,fine,tool0;\
SetDO DO10_1, 0;\
MoveL Offs(p10,308,136,0),v10,fine,tool0;\
SetDO DO10_1, 1;\
MoveL Offs(p10,406,136,0),v30,fine,tool0;\
SetDO DO10_1, 0;\
MoveL Offs(p10,424,136,0),v10,fine,tool0;\
SetDO DO10_1, 1;\
MoveL Offs(p10,428,136,0),v30,fine,tool0;\
SetDO DO10_1, 0;\
MoveL Offs(p10,438,136,0),v10,fine,tool0;\
SetDO DO10_1, 1;\
MoveL Offs(p10,452,136,0),v30,fine,tool0;\
SetDO DO10_1, 0;\
MoveL Offs(p10,461,136,0),v10,fine,tool0;\
SetDO DO10_1, 1;\
MoveL Offs(p10,475,136,0),v30,fine,tool0;\
SetDO DO10_1, 0;\
MoveL Offs(p10,485,136,0),v10,fine,tool0;\
SetDO DO10_1, 1;\
MoveL Offs(p10,53,137,0),v30,fine,tool0;\
SetDO DO10_1, 0;\
MoveL Offs(p10,59,137,0),v10,fine,tool0;\
SetDO DO10_1, 1;\
MoveL Offs(p10,76,137,0),v30,fine,tool0;\
SetDO DO10_1, 0;\
MoveL Offs(p10,81,137,0),v10,fine,tool0;\
SetDO DO10_1, 1;\
MoveL Offs(p10,91,137,0),v30,fine,tool0;\
SetDO DO10_1, 0;\
MoveL Offs(p10,98,137,0),v10,fine,tool0;\
SetDO DO10_1, 1;\
MoveL Offs(p10,128,137,0),v30,fine,tool0;\
SetDO DO10_1, 0;\
MoveL Offs(p10,132,137,0),v10,fine,tool0;\
SetDO DO10_1, 1;\
MoveL Offs(p10,234,137,0),v30,fine,tool0;\
SetDO DO10_1, 0;\
MoveL Offs(p10,244,137,0),v10,fine,tool0;\
SetDO DO10_1, 1;\
MoveL Offs(p10,253,137,0),v30,fine,tool0;\
SetDO DO10_1, 0;\
MoveL Offs(p10,271,137,0),v10,fine,tool0;\
SetDO DO10_1, 1;\
MoveL Offs(p10,277,137,0),v30,fine,tool0;\
SetDO DO10_1, 0;\
MoveL Offs(p10,309,137,0),v10,fine,tool0;\
SetDO DO10_1, 1;\
MoveL Offs(p10,407,137,0),v30,fine,tool0;\
SetDO DO10_1, 0;\
MoveL Offs(p10,425,137,0),v10,fine,tool0;\
SetDO DO10_1, 1;\
MoveL Offs(p10,428,137,0),v30,fine,tool0;\
SetDO DO10_1, 0;\
MoveL Offs(p10,438,137,0),v10,fine,tool0;\
SetDO DO10_1, 1;\
MoveL Offs(p10,452,137,0),v30,fine,tool0;\
SetDO DO10_1, 0;\
MoveL Offs(p10,461,137,0),v10,fine,tool0;\
SetDO DO10_1, 1;\
MoveL Offs(p10,475,137,0),v30,fine,tool0;\
SetDO DO10_1, 0;\
MoveL Offs(p10,485,137,0),v10,fine,tool0;\
SetDO DO10_1, 1;\
MoveL Offs(p10,52,138,0),v30,fine,tool0;\
SetDO DO10_1, 0;\
MoveL Offs(p10,58,138,0),v10,fine,tool0;\
SetDO DO10_1, 1;\
MoveL Offs(p10,77,138,0),v30,fine,tool0;\
SetDO DO10_1, 0;\
MoveL Offs(p10,81,138,0),v10,fine,tool0;\
SetDO DO10_1, 1;\
MoveL Offs(p10,93,138,0),v30,fine,tool0;\
SetDO DO10_1, 0;\
MoveL Offs(p10,99,138,0),v10,fine,tool0;\
SetDO DO10_1, 1;\
MoveL Offs(p10,127,138,0),v30,fine,tool0;\
SetDO DO10_1, 0;\
MoveL Offs(p10,132,138,0),v10,fine,tool0;\
SetDO DO10_1, 1;\
MoveL Offs(p10,159,138,0),v30,fine,tool0;\
SetDO DO10_1, 0;\
MoveL Offs(p10,162,138,0),v10,fine,tool0;\
SetDO DO10_1, 1;\
MoveL Offs(p10,233,138,0),v30,fine,tool0;\
SetDO DO10_1, 0;\
MoveL Offs(p10,243,138,0),v10,fine,tool0;\
SetDO DO10_1, 1;\
MoveL Offs(p10,251,138,0),v30,fine,tool0;\
SetDO DO10_1, 0;\
MoveL Offs(p10,269,138,0),v10,fine,tool0;\
SetDO DO10_1, 1;\
MoveL Offs(p10,277,138,0),v30,fine,tool0;\
SetDO DO10_1, 0;\
MoveL Offs(p10,309,138,0),v10,fine,tool0;\
SetDO DO10_1, 1;\
MoveL Offs(p10,407,138,0),v30,fine,tool0;\
SetDO DO10_1, 0;\
MoveL Offs(p10,437,138,0),v10,fine,tool0;\
SetDO DO10_1, 1;\
MoveL Offs(p10,452,138,0),v30,fine,tool0;\
SetDO DO10_1, 0;\
MoveL Offs(p10,461,138,0),v10,fine,tool0;\
SetDO DO10_1, 1;\
MoveL Offs(p10,476,138,0),v30,fine,tool0;\
SetDO DO10_1, 0;\
MoveL Offs(p10,486,138,0),v10,fine,tool0;\
SetDO DO10_1, 1;\
MoveL Offs(p10,51,139,0),v30,fine,tool0;\
SetDO DO10_1, 0;\
MoveL Offs(p10,57,139,0),v10,fine,tool0;\
SetDO DO10_1, 1;\
MoveL Offs(p10,77,139,0),v30,fine,tool0;\
SetDO DO10_1, 0;\
MoveL Offs(p10,82,139,0),v10,fine,tool0;\
SetDO DO10_1, 1;\
MoveL Offs(p10,94,139,0),v30,fine,tool0;\
SetDO DO10_1, 0;\
MoveL Offs(p10,100,139,0),v10,fine,tool0;\
SetDO DO10_1, 1;\
MoveL Offs(p10,127,139,0),v30,fine,tool0;\
SetDO DO10_1, 0;\
MoveL Offs(p10,132,139,0),v10,fine,tool0;\
SetDO DO10_1, 1;\
MoveL Offs(p10,158,139,0),v30,fine,tool0;\
SetDO DO10_1, 0;\
MoveL Offs(p10,163,139,0),v10,fine,tool0;\
SetDO DO10_1, 1;\
MoveL Offs(p10,183,139,0),v30,fine,tool0;\
SetDO DO10_1, 0;\
MoveL Offs(p10,191,139,0),v10,fine,tool0;\
SetDO DO10_1, 1;\
MoveL Offs(p10,233,139,0),v30,fine,tool0;\
SetDO DO10_1, 0;\
MoveL Offs(p10,242,139,0),v10,fine,tool0;\
SetDO DO10_1, 1;\
MoveL Offs(p10,249,139,0),v30,fine,tool0;\
SetDO DO10_1, 0;\
MoveL Offs(p10,268,139,0),v10,fine,tool0;\
SetDO DO10_1, 1;\
MoveL Offs(p10,277,139,0),v30,fine,tool0;\
SetDO DO10_1, 0;\
MoveL Offs(p10,309,139,0),v10,fine,tool0;\
SetDO DO10_1, 1;\
MoveL Offs(p10,407,139,0),v30,fine,tool0;\
SetDO DO10_1, 0;\
MoveL Offs(p10,436,139,0),v10,fine,tool0;\
SetDO DO10_1, 1;\
MoveL Offs(p10,452,139,0),v30,fine,tool0;\
SetDO DO10_1, 0;\
MoveL Offs(p10,461,139,0),v10,fine,tool0;\
SetDO DO10_1, 1;\
MoveL Offs(p10,477,139,0),v30,fine,tool0;\
SetDO DO10_1, 0;\
MoveL Offs(p10,486,139,0),v10,fine,tool0;\
SetDO DO10_1, 1;\
MoveL Offs(p10,50,140,0),v30,fine,tool0;\
SetDO DO10_1, 0;\
MoveL Offs(p10,56,140,0),v10,fine,tool0;\
SetDO DO10_1, 1;\
MoveL Offs(p10,78,140,0),v30,fine,tool0;\
SetDO DO10_1, 0;\
MoveL Offs(p10,83,140,0),v10,fine,tool0;\
SetDO DO10_1, 1;\
MoveL Offs(p10,95,140,0),v30,fine,tool0;\
SetDO DO10_1, 0;\
MoveL Offs(p10,100,140,0),v10,fine,tool0;\
SetDO DO10_1, 1;\
MoveL Offs(p10,126,140,0),v30,fine,tool0;\
SetDO DO10_1, 0;\
MoveL Offs(p10,131,140,0),v10,fine,tool0;\
SetDO DO10_1, 1;\
MoveL Offs(p10,158,140,0),v30,fine,tool0;\
SetDO DO10_1, 0;\
MoveL Offs(p10,163,140,0),v10,fine,tool0;\
SetDO DO10_1, 1;\
MoveL Offs(p10,181,140,0),v30,fine,tool0;\
SetDO DO10_1, 0;\
MoveL Offs(p10,193,140,0),v10,fine,tool0;\
SetDO DO10_1, 1;\
MoveL Offs(p10,233,140,0),v30,fine,tool0;\
SetDO DO10_1, 0;\
MoveL Offs(p10,242,140,0),v10,fine,tool0;\
SetDO DO10_1, 1;\
MoveL Offs(p10,247,140,0),v30,fine,tool0;\
SetDO DO10_1, 0;\
MoveL Offs(p10,266,140,0),v10,fine,tool0;\
SetDO DO10_1, 1;\
MoveL Offs(p10,278,140,0),v30,fine,tool0;\
SetDO DO10_1, 0;\
MoveL Offs(p10,309,140,0),v10,fine,tool0;\
SetDO DO10_1, 1;\
MoveL Offs(p10,407,140,0),v30,fine,tool0;\
SetDO DO10_1, 0;\
MoveL Offs(p10,424,140,0),v10,fine,tool0;\
SetDO DO10_1, 1;\
MoveL Offs(p10,427,140,0),v30,fine,tool0;\
SetDO DO10_1, 0;\
MoveL Offs(p10,436,140,0),v10,fine,tool0;\
SetDO DO10_1, 1;\
MoveL Offs(p10,452,140,0),v30,fine,tool0;\
SetDO DO10_1, 0;\
MoveL Offs(p10,461,140,0),v10,fine,tool0;\
SetDO DO10_1, 1;\
MoveL Offs(p10,477,140,0),v30,fine,tool0;\
SetDO DO10_1, 0;\
MoveL Offs(p10,486,140,0),v10,fine,tool0;\
SetDO DO10_1, 1;\
MoveL Offs(p10,50,141,0),v30,fine,tool0;\
SetDO DO10_1, 0;\
MoveL Offs(p10,55,141,0),v10,fine,tool0;\
SetDO DO10_1, 1;\
MoveL Offs(p10,78,141,0),v30,fine,tool0;\
SetDO DO10_1, 0;\
MoveL Offs(p10,83,141,0),v10,fine,tool0;\
SetDO DO10_1, 1;\
MoveL Offs(p10,96,141,0),v30,fine,tool0;\
SetDO DO10_1, 0;\
MoveL Offs(p10,101,141,0),v10,fine,tool0;\
SetDO DO10_1, 1;\
MoveL Offs(p10,125,141,0),v30,fine,tool0;\
SetDO DO10_1, 0;\
MoveL Offs(p10,130,141,0),v10,fine,tool0;\
SetDO DO10_1, 1;\
MoveL Offs(p10,158,141,0),v30,fine,tool0;\
SetDO DO10_1, 0;\
MoveL Offs(p10,163,141,0),v10,fine,tool0;\
SetDO DO10_1, 1;\
MoveL Offs(p10,180,141,0),v30,fine,tool0;\
SetDO DO10_1, 0;\
MoveL Offs(p10,194,141,0),v10,fine,tool0;\
SetDO DO10_1, 1;\
MoveL Offs(p10,235,141,0),v30,fine,tool0;\
SetDO DO10_1, 0;\
MoveL Offs(p10,241,141,0),v10,fine,tool0;\
SetDO DO10_1, 1;\
MoveL Offs(p10,246,141,0),v30,fine,tool0;\
SetDO DO10_1, 0;\
MoveL Offs(p10,264,141,0),v10,fine,tool0;\
SetDO DO10_1, 1;\
MoveL Offs(p10,278,141,0),v30,fine,tool0;\
SetDO DO10_1, 0;\
MoveL Offs(p10,310,141,0),v10,fine,tool0;\
SetDO DO10_1, 1;\
MoveL Offs(p10,408,141,0),v30,fine,tool0;\
SetDO DO10_1, 0;\
MoveL Offs(p10,420,141,0),v10,fine,tool0;\
SetDO DO10_1, 1;\
MoveL Offs(p10,429,141,0),v30,fine,tool0;\
SetDO DO10_1, 0;\
MoveL Offs(p10,435,141,0),v10,fine,tool0;\
SetDO DO10_1, 1;\
MoveL Offs(p10,452,141,0),v30,fine,tool0;\
SetDO DO10_1, 0;\
MoveL Offs(p10,461,141,0),v10,fine,tool0;\
SetDO DO10_1, 1;\
MoveL Offs(p10,478,141,0),v30,fine,tool0;\
SetDO DO10_1, 0;\
MoveL Offs(p10,484,141,0),v10,fine,tool0;\
SetDO DO10_1, 1;\
MoveL Offs(p10,49,142,0),v30,fine,tool0;\
SetDO DO10_1, 0;\
MoveL Offs(p10,54,142,0),v10,fine,tool0;\
SetDO DO10_1, 1;\
MoveL Offs(p10,79,142,0),v30,fine,tool0;\
SetDO DO10_1, 0;\
MoveL Offs(p10,84,142,0),v10,fine,tool0;\
SetDO DO10_1, 1;\
MoveL Offs(p10,97,142,0),v30,fine,tool0;\
SetDO DO10_1, 0;\
MoveL Offs(p10,102,142,0),v10,fine,tool0;\
SetDO DO10_1, 1;\
MoveL Offs(p10,124,142,0),v30,fine,tool0;\
SetDO DO10_1, 0;\
MoveL Offs(p10,130,142,0),v10,fine,tool0;\
SetDO DO10_1, 1;\
MoveL Offs(p10,158,142,0),v30,fine,tool0;\
SetDO DO10_1, 0;\
MoveL Offs(p10,163,142,0),v10,fine,tool0;\
SetDO DO10_1, 1;\
MoveL Offs(p10,178,142,0),v30,fine,tool0;\
SetDO DO10_1, 0;\
MoveL Offs(p10,195,142,0),v10,fine,tool0;\
SetDO DO10_1, 1;\
MoveL Offs(p10,237,142,0),v30,fine,tool0;\
SetDO DO10_1, 0;\
MoveL Offs(p10,241,142,0),v10,fine,tool0;\
SetDO DO10_1, 1;\
MoveL Offs(p10,244,142,0),v30,fine,tool0;\
SetDO DO10_1, 0;\
MoveL Offs(p10,262,142,0),v10,fine,tool0;\
SetDO DO10_1, 1;\
MoveL Offs(p10,278,142,0),v30,fine,tool0;\
SetDO DO10_1, 0;\
MoveL Offs(p10,310,142,0),v10,fine,tool0;\
SetDO DO10_1, 1;\
MoveL Offs(p10,408,142,0),v30,fine,tool0;\
SetDO DO10_1, 0;\
MoveL Offs(p10,416,142,0),v10,fine,tool0;\
SetDO DO10_1, 1;\
MoveL Offs(p10,431,142,0),v30,fine,tool0;\
SetDO DO10_1, 0;\
MoveL Offs(p10,435,142,0),v10,fine,tool0;\
SetDO DO10_1, 1;\
MoveL Offs(p10,452,142,0),v30,fine,tool0;\
SetDO DO10_1, 0;\
MoveL Offs(p10,461,142,0),v10,fine,tool0;\
SetDO DO10_1, 1;\
MoveL Offs(p10,478,142,0),v30,fine,tool0;\
SetDO DO10_1, 0;\
MoveL Offs(p10,482,142,0),v10,fine,tool0;\
SetDO DO10_1, 1;\
MoveL Offs(p10,48,143,0),v30,fine,tool0;\
SetDO DO10_1, 0;\
MoveL Offs(p10,53,143,0),v10,fine,tool0;\
SetDO DO10_1, 1;\
MoveL Offs(p10,80,143,0),v30,fine,tool0;\
SetDO DO10_1, 0;\
MoveL Offs(p10,85,143,0),v10,fine,tool0;\
SetDO DO10_1, 1;\
MoveL Offs(p10,97,143,0),v30,fine,tool0;\
SetDO DO10_1, 0;\
MoveL Offs(p10,102,143,0),v10,fine,tool0;\
SetDO DO10_1, 1;\
MoveL Offs(p10,123,143,0),v30,fine,tool0;\
SetDO DO10_1, 0;\
MoveL Offs(p10,129,143,0),v10,fine,tool0;\
SetDO DO10_1, 1;\
MoveL Offs(p10,158,143,0),v30,fine,tool0;\
SetDO DO10_1, 0;\
MoveL Offs(p10,163,143,0),v10,fine,tool0;\
SetDO DO10_1, 1;\
MoveL Offs(p10,177,143,0),v30,fine,tool0;\
SetDO DO10_1, 0;\
MoveL Offs(p10,196,143,0),v10,fine,tool0;\
SetDO DO10_1, 1;\
MoveL Offs(p10,238,143,0),v30,fine,tool0;\
SetDO DO10_1, 0;\
MoveL Offs(p10,261,143,0),v10,fine,tool0;\
SetDO DO10_1, 1;\
MoveL Offs(p10,278,143,0),v30,fine,tool0;\
SetDO DO10_1, 0;\
MoveL Offs(p10,310,143,0),v10,fine,tool0;\
SetDO DO10_1, 1;\
MoveL Offs(p10,408,143,0),v30,fine,tool0;\
SetDO DO10_1, 0;\
MoveL Offs(p10,413,143,0),v10,fine,tool0;\
SetDO DO10_1, 1;\
MoveL Offs(p10,432,143,0),v30,fine,tool0;\
SetDO DO10_1, 0;\
MoveL Offs(p10,434,143,0),v10,fine,tool0;\
SetDO DO10_1, 1;\
MoveL Offs(p10,452,143,0),v30,fine,tool0;\
SetDO DO10_1, 0;\
MoveL Offs(p10,461,143,0),v10,fine,tool0;\
SetDO DO10_1, 1;\
MoveL Offs(p10,479,143,0),v30,fine,tool0;\
SetDO DO10_1, 0;\
MoveL Offs(p10,481,143,0),v10,fine,tool0;\
SetDO DO10_1, 1;\
MoveL Offs(p10,48,144,0),v30,fine,tool0;\
SetDO DO10_1, 0;\
MoveL Offs(p10,53,144,0),v10,fine,tool0;\
SetDO DO10_1, 1;\
MoveL Offs(p10,80,144,0),v30,fine,tool0;\
SetDO DO10_1, 0;\
MoveL Offs(p10,86,144,0),v10,fine,tool0;\
SetDO DO10_1, 1;\
MoveL Offs(p10,98,144,0),v30,fine,tool0;\
SetDO DO10_1, 0;\
MoveL Offs(p10,103,144,0),v10,fine,tool0;\
SetDO DO10_1, 1;\
MoveL Offs(p10,122,144,0),v30,fine,tool0;\
SetDO DO10_1, 0;\
MoveL Offs(p10,128,144,0),v10,fine,tool0;\
SetDO DO10_1, 1;\
MoveL Offs(p10,158,144,0),v30,fine,tool0;\
SetDO DO10_1, 0;\
MoveL Offs(p10,163,144,0),v10,fine,tool0;\
SetDO DO10_1, 1;\
MoveL Offs(p10,176,144,0),v30,fine,tool0;\
SetDO DO10_1, 0;\
MoveL Offs(p10,197,144,0),v10,fine,tool0;\
SetDO DO10_1, 1;\
MoveL Offs(p10,240,144,0),v30,fine,tool0;\
SetDO DO10_1, 0;\
MoveL Offs(p10,259,144,0),v10,fine,tool0;\
SetDO DO10_1, 1;\
MoveL Offs(p10,279,144,0),v30,fine,tool0;\
SetDO DO10_1, 0;\
MoveL Offs(p10,310,144,0),v10,fine,tool0;\
SetDO DO10_1, 1;\
MoveL Offs(p10,409,144,0),v30,fine,tool0;\
SetDO DO10_1, 0;\
MoveL Offs(p10,409,144,0),v10,fine,tool0;\
SetDO DO10_1, 1;\
MoveL Offs(p10,434,144,0),v30,fine,tool0;\
SetDO DO10_1, 0;\
MoveL Offs(p10,434,144,0),v10,fine,tool0;\
SetDO DO10_1, 1;\
MoveL Offs(p10,452,144,0),v30,fine,tool0;\
SetDO DO10_1, 0;\
MoveL Offs(p10,461,144,0),v10,fine,tool0;\
SetDO DO10_1, 1;\
MoveL Offs(p10,479,144,0),v30,fine,tool0;\
SetDO DO10_1, 0;\
MoveL Offs(p10,479,144,0),v10,fine,tool0;\
SetDO DO10_1, 1;\
MoveL Offs(p10,47,145,0),v30,fine,tool0;\
SetDO DO10_1, 0;\
MoveL Offs(p10,52,145,0),v10,fine,tool0;\
SetDO DO10_1, 1;\
MoveL Offs(p10,81,145,0),v30,fine,tool0;\
SetDO DO10_1, 0;\
MoveL Offs(p10,88,145,0),v10,fine,tool0;\
SetDO DO10_1, 1;\
MoveL Offs(p10,99,145,0),v30,fine,tool0;\
SetDO DO10_1, 0;\
MoveL Offs(p10,103,145,0),v10,fine,tool0;\
SetDO DO10_1, 1;\
MoveL Offs(p10,121,145,0),v30,fine,tool0;\
SetDO DO10_1, 0;\
MoveL Offs(p10,127,145,0),v10,fine,tool0;\
SetDO DO10_1, 1;\
MoveL Offs(p10,158,145,0),v30,fine,tool0;\
SetDO DO10_1, 0;\
MoveL Offs(p10,163,145,0),v10,fine,tool0;\
SetDO DO10_1, 1;\
MoveL Offs(p10,175,145,0),v30,fine,tool0;\
SetDO DO10_1, 0;\
MoveL Offs(p10,197,145,0),v10,fine,tool0;\
SetDO DO10_1, 1;\
MoveL Offs(p10,241,145,0),v30,fine,tool0;\
SetDO DO10_1, 0;\
MoveL Offs(p10,257,145,0),v10,fine,tool0;\
SetDO DO10_1, 1;\
MoveL Offs(p10,279,145,0),v30,fine,tool0;\
SetDO DO10_1, 0;\
MoveL Offs(p10,308,145,0),v10,fine,tool0;\
SetDO DO10_1, 1;\
MoveL Offs(p10,434,145,0),v30,fine,tool0;\
SetDO DO10_1, 0;\
MoveL Offs(p10,438,145,0),v10,fine,tool0;\
SetDO DO10_1, 1;\
MoveL Offs(p10,452,145,0),v30,fine,tool0;\
SetDO DO10_1, 0;\
MoveL Offs(p10,461,145,0),v10,fine,tool0;\
SetDO DO10_1, 1;\
MoveL Offs(p10,475,145,0),v30,fine,tool0;\
SetDO DO10_1, 0;\
MoveL Offs(p10,479,145,0),v10,fine,tool0;\
SetDO DO10_1, 1;\
MoveL Offs(p10,47,146,0),v30,fine,tool0;\
SetDO DO10_1, 0;\
MoveL Offs(p10,51,146,0),v10,fine,tool0;\
SetDO DO10_1, 1;\
MoveL Offs(p10,82,146,0),v30,fine,tool0;\
SetDO DO10_1, 0;\
MoveL Offs(p10,89,146,0),v10,fine,tool0;\
SetDO DO10_1, 1;\
MoveL Offs(p10,99,146,0),v30,fine,tool0;\
SetDO DO10_1, 0;\
MoveL Offs(p10,104,146,0),v10,fine,tool0;\
SetDO DO10_1, 1;\
MoveL Offs(p10,120,146,0),v30,fine,tool0;\
SetDO DO10_1, 0;\
MoveL Offs(p10,127,146,0),v10,fine,tool0;\
SetDO DO10_1, 1;\
MoveL Offs(p10,158,146,0),v30,fine,tool0;\
SetDO DO10_1, 0;\
MoveL Offs(p10,163,146,0),v10,fine,tool0;\
SetDO DO10_1, 1;\
MoveL Offs(p10,173,146,0),v30,fine,tool0;\
SetDO DO10_1, 0;\
MoveL Offs(p10,183,146,0),v10,fine,tool0;\
SetDO DO10_1, 1;\
MoveL Offs(p10,191,146,0),v30,fine,tool0;\
SetDO DO10_1, 0;\
MoveL Offs(p10,198,146,0),v10,fine,tool0;\
SetDO DO10_1, 1;\
MoveL Offs(p10,242,146,0),v30,fine,tool0;\
SetDO DO10_1, 0;\
MoveL Offs(p10,256,146,0),v10,fine,tool0;\
SetDO DO10_1, 1;\
MoveL Offs(p10,279,146,0),v30,fine,tool0;\
SetDO DO10_1, 0;\
MoveL Offs(p10,304,146,0),v10,fine,tool0;\
SetDO DO10_1, 1;\
MoveL Offs(p10,434,146,0),v30,fine,tool0;\
SetDO DO10_1, 0;\
MoveL Offs(p10,442,146,0),v10,fine,tool0;\
SetDO DO10_1, 1;\
MoveL Offs(p10,452,146,0),v30,fine,tool0;\
SetDO DO10_1, 0;\
MoveL Offs(p10,461,146,0),v10,fine,tool0;\
SetDO DO10_1, 1;\
MoveL Offs(p10,471,146,0),v30,fine,tool0;\
SetDO DO10_1, 0;\
MoveL Offs(p10,479,146,0),v10,fine,tool0;\
SetDO DO10_1, 1;\
MoveL Offs(p10,47,147,0),v30,fine,tool0;\
SetDO DO10_1, 0;\
MoveL Offs(p10,51,147,0),v10,fine,tool0;\
SetDO DO10_1, 1;\
MoveL Offs(p10,83,147,0),v30,fine,tool0;\
SetDO DO10_1, 0;\
MoveL Offs(p10,91,147,0),v10,fine,tool0;\
SetDO DO10_1, 1;\
MoveL Offs(p10,100,147,0),v30,fine,tool0;\
SetDO DO10_1, 0;\
MoveL Offs(p10,104,147,0),v10,fine,tool0;\
SetDO DO10_1, 1;\
MoveL Offs(p10,118,147,0),v30,fine,tool0;\
SetDO DO10_1, 0;\
MoveL Offs(p10,126,147,0),v10,fine,tool0;\
SetDO DO10_1, 1;\
MoveL Offs(p10,158,147,0),v30,fine,tool0;\
SetDO DO10_1, 0;\
MoveL Offs(p10,163,147,0),v10,fine,tool0;\
SetDO DO10_1, 1;\
MoveL Offs(p10,172,147,0),v30,fine,tool0;\
SetDO DO10_1, 0;\
MoveL Offs(p10,182,147,0),v10,fine,tool0;\
SetDO DO10_1, 1;\
MoveL Offs(p10,192,147,0),v30,fine,tool0;\
SetDO DO10_1, 0;\
MoveL Offs(p10,198,147,0),v10,fine,tool0;\
SetDO DO10_1, 1;\
MoveL Offs(p10,242,147,0),v30,fine,tool0;\
SetDO DO10_1, 0;\
MoveL Offs(p10,254,147,0),v10,fine,tool0;\
SetDO DO10_1, 1;\
MoveL Offs(p10,279,147,0),v30,fine,tool0;\
SetDO DO10_1, 0;\
MoveL Offs(p10,301,147,0),v10,fine,tool0;\
SetDO DO10_1, 1;\
MoveL Offs(p10,434,147,0),v30,fine,tool0;\
SetDO DO10_1, 0;\
MoveL Offs(p10,446,147,0),v10,fine,tool0;\
SetDO DO10_1, 1;\
MoveL Offs(p10,452,147,0),v30,fine,tool0;\
SetDO DO10_1, 0;\
MoveL Offs(p10,461,147,0),v10,fine,tool0;\
SetDO DO10_1, 1;\
MoveL Offs(p10,467,147,0),v30,fine,tool0;\
SetDO DO10_1, 0;\
MoveL Offs(p10,479,147,0),v10,fine,tool0;\
SetDO DO10_1, 1;\
MoveL Offs(p10,46,148,0),v30,fine,tool0;\
SetDO DO10_1, 0;\
MoveL Offs(p10,50,148,0),v10,fine,tool0;\
SetDO DO10_1, 1;\
MoveL Offs(p10,84,148,0),v30,fine,tool0;\
SetDO DO10_1, 0;\
MoveL Offs(p10,93,148,0),v10,fine,tool0;\
SetDO DO10_1, 1;\
MoveL Offs(p10,100,148,0),v30,fine,tool0;\
SetDO DO10_1, 0;\
MoveL Offs(p10,105,148,0),v10,fine,tool0;\
SetDO DO10_1, 1;\
MoveL Offs(p10,116,148,0),v30,fine,tool0;\
SetDO DO10_1, 0;\
MoveL Offs(p10,124,148,0),v10,fine,tool0;\
SetDO DO10_1, 1;\
MoveL Offs(p10,158,148,0),v30,fine,tool0;\
SetDO DO10_1, 0;\
MoveL Offs(p10,163,148,0),v10,fine,tool0;\
SetDO DO10_1, 1;\
MoveL Offs(p10,171,148,0),v30,fine,tool0;\
SetDO DO10_1, 0;\
MoveL Offs(p10,180,148,0),v10,fine,tool0;\
SetDO DO10_1, 1;\
MoveL Offs(p10,192,148,0),v30,fine,tool0;\
SetDO DO10_1, 0;\
MoveL Offs(p10,198,148,0),v10,fine,tool0;\
SetDO DO10_1, 1;\
MoveL Offs(p10,243,148,0),v30,fine,tool0;\
SetDO DO10_1, 0;\
MoveL Offs(p10,252,148,0),v10,fine,tool0;\
SetDO DO10_1, 1;\
MoveL Offs(p10,280,148,0),v30,fine,tool0;\
SetDO DO10_1, 0;\
MoveL Offs(p10,297,148,0),v10,fine,tool0;\
SetDO DO10_1, 1;\
MoveL Offs(p10,433,148,0),v30,fine,tool0;\
SetDO DO10_1, 0;\
MoveL Offs(p10,449,148,0),v10,fine,tool0;\
SetDO DO10_1, 1;\
MoveL Offs(p10,452,148,0),v30,fine,tool0;\
SetDO DO10_1, 0;\
MoveL Offs(p10,461,148,0),v10,fine,tool0;\
SetDO DO10_1, 1;\
MoveL Offs(p10,464,148,0),v30,fine,tool0;\
SetDO DO10_1, 0;\
MoveL Offs(p10,480,148,0),v10,fine,tool0;\
SetDO DO10_1, 1;\
MoveL Offs(p10,46,149,0),v30,fine,tool0;\
SetDO DO10_1, 0;\
MoveL Offs(p10,50,149,0),v10,fine,tool0;\
SetDO DO10_1, 1;\
MoveL Offs(p10,85,149,0),v30,fine,tool0;\
SetDO DO10_1, 0;\
MoveL Offs(p10,95,149,0),v10,fine,tool0;\
SetDO DO10_1, 1;\
MoveL Offs(p10,101,149,0),v30,fine,tool0;\
SetDO DO10_1, 0;\
MoveL Offs(p10,105,149,0),v10,fine,tool0;\
SetDO DO10_1, 1;\
MoveL Offs(p10,113,149,0),v30,fine,tool0;\
SetDO DO10_1, 0;\
MoveL Offs(p10,123,149,0),v10,fine,tool0;\
SetDO DO10_1, 1;\
MoveL Offs(p10,158,149,0),v30,fine,tool0;\
SetDO DO10_1, 0;\
MoveL Offs(p10,163,149,0),v10,fine,tool0;\
SetDO DO10_1, 1;\
MoveL Offs(p10,169,149,0),v30,fine,tool0;\
SetDO DO10_1, 0;\
MoveL Offs(p10,179,149,0),v10,fine,tool0;\
SetDO DO10_1, 1;\
MoveL Offs(p10,193,149,0),v30,fine,tool0;\
SetDO DO10_1, 0;\
MoveL Offs(p10,198,149,0),v10,fine,tool0;\
SetDO DO10_1, 1;\
MoveL Offs(p10,243,149,0),v30,fine,tool0;\
SetDO DO10_1, 0;\
MoveL Offs(p10,250,149,0),v10,fine,tool0;\
SetDO DO10_1, 1;\
MoveL Offs(p10,280,149,0),v30,fine,tool0;\
SetDO DO10_1, 0;\
MoveL Offs(p10,293,149,0),v10,fine,tool0;\
SetDO DO10_1, 1;\
MoveL Offs(p10,433,149,0),v30,fine,tool0;\
SetDO DO10_1, 0;\
MoveL Offs(p10,480,149,0),v10,fine,tool0;\
SetDO DO10_1, 1;\
MoveL Offs(p10,46,150,0),v30,fine,tool0;\
SetDO DO10_1, 0;\
MoveL Offs(p10,50,150,0),v10,fine,tool0;\
SetDO DO10_1, 1;\
MoveL Offs(p10,87,150,0),v30,fine,tool0;\
SetDO DO10_1, 0;\
MoveL Offs(p10,105,150,0),v10,fine,tool0;\
SetDO DO10_1, 1;\
MoveL Offs(p10,109,150,0),v30,fine,tool0;\
SetDO DO10_1, 0;\
MoveL Offs(p10,122,150,0),v10,fine,tool0;\
SetDO DO10_1, 1;\
MoveL Offs(p10,158,150,0),v30,fine,tool0;\
SetDO DO10_1, 0;\
MoveL Offs(p10,163,150,0),v10,fine,tool0;\
SetDO DO10_1, 1;\
MoveL Offs(p10,168,150,0),v30,fine,tool0;\
SetDO DO10_1, 0;\
MoveL Offs(p10,178,150,0),v10,fine,tool0;\
SetDO DO10_1, 1;\
MoveL Offs(p10,193,150,0),v30,fine,tool0;\
SetDO DO10_1, 0;\
MoveL Offs(p10,198,150,0),v10,fine,tool0;\
SetDO DO10_1, 1;\
MoveL Offs(p10,244,150,0),v30,fine,tool0;\
SetDO DO10_1, 0;\
MoveL Offs(p10,249,150,0),v10,fine,tool0;\
SetDO DO10_1, 1;\
MoveL Offs(p10,280,150,0),v30,fine,tool0;\
SetDO DO10_1, 0;\
MoveL Offs(p10,289,150,0),v10,fine,tool0;\
SetDO DO10_1, 1;\
MoveL Offs(p10,433,150,0),v30,fine,tool0;\
SetDO DO10_1, 0;\
MoveL Offs(p10,451,150,0),v10,fine,tool0;\
SetDO DO10_1, 1;\
MoveL Offs(p10,462,150,0),v30,fine,tool0;\
SetDO DO10_1, 0;\
MoveL Offs(p10,480,150,0),v10,fine,tool0;\
SetDO DO10_1, 1;\
MoveL Offs(p10,45,151,0),v30,fine,tool0;\
SetDO DO10_1, 0;\
MoveL Offs(p10,49,151,0),v10,fine,tool0;\
SetDO DO10_1, 1;\
MoveL Offs(p10,88,151,0),v30,fine,tool0;\
SetDO DO10_1, 0;\
MoveL Offs(p10,120,151,0),v10,fine,tool0;\
SetDO DO10_1, 1;\
MoveL Offs(p10,158,151,0),v30,fine,tool0;\
SetDO DO10_1, 0;\
MoveL Offs(p10,163,151,0),v10,fine,tool0;\
SetDO DO10_1, 1;\
MoveL Offs(p10,167,151,0),v30,fine,tool0;\
SetDO DO10_1, 0;\
MoveL Offs(p10,176,151,0),v10,fine,tool0;\
SetDO DO10_1, 1;\
MoveL Offs(p10,193,151,0),v30,fine,tool0;\
SetDO DO10_1, 0;\
MoveL Offs(p10,198,151,0),v10,fine,tool0;\
SetDO DO10_1, 1;\
MoveL Offs(p10,245,151,0),v30,fine,tool0;\
SetDO DO10_1, 0;\
MoveL Offs(p10,247,151,0),v10,fine,tool0;\
SetDO DO10_1, 1;\
MoveL Offs(p10,281,151,0),v30,fine,tool0;\
SetDO DO10_1, 0;\
MoveL Offs(p10,286,151,0),v10,fine,tool0;\
SetDO DO10_1, 1;\
MoveL Offs(p10,433,151,0),v30,fine,tool0;\
SetDO DO10_1, 0;\
MoveL Offs(p10,451,151,0),v10,fine,tool0;\
SetDO DO10_1, 1;\
MoveL Offs(p10,462,151,0),v30,fine,tool0;\
SetDO DO10_1, 0;\
MoveL Offs(p10,480,151,0),v10,fine,tool0;\
SetDO DO10_1, 1;\
MoveL Offs(p10,45,152,0),v30,fine,tool0;\
SetDO DO10_1, 0;\
MoveL Offs(p10,49,152,0),v10,fine,tool0;\
SetDO DO10_1, 1;\
MoveL Offs(p10,90,152,0),v30,fine,tool0;\
SetDO DO10_1, 0;\
MoveL Offs(p10,119,152,0),v10,fine,tool0;\
SetDO DO10_1, 1;\
MoveL Offs(p10,158,152,0),v30,fine,tool0;\
SetDO DO10_1, 0;\
MoveL Offs(p10,175,152,0),v10,fine,tool0;\
SetDO DO10_1, 1;\
MoveL Offs(p10,192,152,0),v30,fine,tool0;\
SetDO DO10_1, 0;\
MoveL Offs(p10,198,152,0),v10,fine,tool0;\
SetDO DO10_1, 1;\
MoveL Offs(p10,245,152,0),v30,fine,tool0;\
SetDO DO10_1, 0;\
MoveL Offs(p10,282,152,0),v10,fine,tool0;\
SetDO DO10_1, 1;\
MoveL Offs(p10,432,152,0),v30,fine,tool0;\
SetDO DO10_1, 0;\
MoveL Offs(p10,450,152,0),v10,fine,tool0;\
SetDO DO10_1, 1;\
MoveL Offs(p10,463,152,0),v30,fine,tool0;\
SetDO DO10_1, 0;\
MoveL Offs(p10,481,152,0),v10,fine,tool0;\
SetDO DO10_1, 1;\
MoveL Offs(p10,45,153,0),v30,fine,tool0;\
SetDO DO10_1, 0;\
MoveL Offs(p10,49,153,0),v10,fine,tool0;\
SetDO DO10_1, 1;\
MoveL Offs(p10,92,153,0),v30,fine,tool0;\
SetDO DO10_1, 0;\
MoveL Offs(p10,117,153,0),v10,fine,tool0;\
SetDO DO10_1, 1;\
MoveL Offs(p10,158,153,0),v30,fine,tool0;\
SetDO DO10_1, 0;\
MoveL Offs(p10,174,153,0),v10,fine,tool0;\
SetDO DO10_1, 1;\
MoveL Offs(p10,192,153,0),v30,fine,tool0;\
SetDO DO10_1, 0;\
MoveL Offs(p10,198,153,0),v10,fine,tool0;\
SetDO DO10_1, 1;\
